; generated by PrusaSlicer 2.3.0+win64 on 2021-03-17 at 10:56:38 UTC

; 

; external perimeters extrusion width = 0.45mm
; perimeters extrusion width = 0.45mm
; infill extrusion width = 0.45mm
; solid infill extrusion width = 0.45mm
; top infill extrusion width = 0.40mm
; first layer extrusion width = 0.42mm

M73 P0 R8
M73 Q0 S8
M201 X1000 Y1000 Z200 E5000 ; sets maximum accelerations, mm/sec^2
M203 X200 Y200 Z12 E120 ; sets maximum feedrates, mm/sec
M204 P1250 R1250 T1250 ; sets acceleration (P, T) and retract acceleration (R), mm/sec^2
M205 X8.00 Y8.00 Z0.40 E4.50 ; sets the jerk limits, mm/sec
M205 S0 T0 ; sets the minimum extruding and travel feed rate, mm/sec
M107
;TYPE:Custom
M862.3 P "MK3" ; printer model check
M862.1 P0.4 ; nozzle diameter check
M115 U3.9.3 ; tell printer latest fw version
G90 ; use absolute coordinates
M83 ; extruder relative mode
M104 S240 ; set extruder temp
M140 S85 ; set bed temp
M190 S85 ; wait for bed temp
M109 S240 ; wait for extruder temp
G28 W ; home all without mesh bed level
G80 ; mesh bed leveling
G1 Y-3.0 F1000.0 ; go outside print area
G92 E0.0
G1 X60.0 E9.0 F1000.0 ; intro line
G1 X100.0 E12.5 F1000.0 ; intro line
G92 E0.0
M221 S95

; Don't change E values below. Excessive value can damage the printer.

M907 E538 ; set extruder motor current
G21 ; set units to millimeters
G90 ; use absolute coordinates
M83 ; use relative distances for extrusion
M900 K0.08 ; Filament gcode LA 1.5
M900 K45 ; Filament gcode LA 1.0
;LAYER_CHANGE
;Z:0.2
;HEIGHT:0.2
;BEFORE_LAYER_CHANGE
G92 E0.0
;0.2


M73 P1 R8
M73 Q1 S8
G1 E-1.40000 F2100.000
G1 Z0.200 F10800.000
;AFTER_LAYER_CHANGE
;0.2
G1 Z0.400
G1 X119.710 Y99.672
G1 Z0.200
G1 E1.40000 F2100.000
M204 S1000
;TYPE:Skirt
;WIDTH:0.42
G1 F1200.000
G1 X120.800 Y98.777 E0.04423
G1 X122.167 Y98.047 E0.04860
G1 X123.517 Y97.640 E0.04423
G1 X125.042 Y97.492 E0.04802
G1 X126.459 Y97.635 E0.04466
G1 X127.940 Y98.091 E0.04860
G1 X129.184 Y98.766 E0.04437
G1 X130.366 Y99.748 E0.04816
G1 X131.258 Y100.852 E0.04452
G1 X131.973 Y102.216 E0.04831
G1 X132.371 Y103.570 E0.04423
G1 X132.508 Y105.072 E0.04730
G1 X132.362 Y106.475 E0.04423
G1 X131.958 Y107.822 E0.04411
G1 X131.249 Y109.163 E0.04755
G1 X130.340 Y110.278 E0.04509
G1 X129.174 Y111.242 E0.04744
G1 X127.933 Y111.912 E0.04423
G1 X126.455 Y112.366 E0.04845
G1 X125.034 Y112.508 E0.04480
G1 X123.514 Y112.359 E0.04787
G1 X122.164 Y111.952 E0.04423
G1 X120.801 Y111.224 E0.04845
G1 X119.710 Y110.328 E0.04423
G1 X118.732 Y109.132 E0.04845
G1 X118.069 Y107.887 E0.04423
G1 X117.624 Y106.403 E0.04860
G1 X117.492 Y104.998 E0.04423
G1 X117.624 Y103.597 E0.04412
G1 X118.069 Y102.114 E0.04856
G1 X118.732 Y100.868 E0.04426
M73 Q2 S8
G1 X119.672 Y99.719 E0.04654
G1 X119.962 Y99.956 F10800.000
G1 F1200.000
G1 X121.010 Y99.090 E0.04261
G1 X122.308 Y98.396 E0.04617
M73 P2 R8
G1 X123.586 Y98.011 E0.04186
G1 X125.039 Y97.869 E0.04576
G1 X126.384 Y98.005 E0.04241
G1 X127.796 Y98.439 E0.04630
G1 X128.973 Y99.078 E0.04200
G1 X130.099 Y100.014 E0.04589
G1 X130.943 Y101.059 E0.04213
G1 X131.625 Y102.359 E0.04603
G1 X132.001 Y103.640 E0.04186
G1 X132.131 Y105.072 E0.04507
G1 X131.993 Y106.400 E0.04186
G1 X131.611 Y107.674 E0.04172
G1 X130.935 Y108.953 E0.04535
G1 X130.076 Y110.009 E0.04268
G1 X128.965 Y110.928 E0.04521
G1 X127.786 Y111.564 E0.04200
G1 X126.383 Y111.996 E0.04603
G1 X125.033 Y112.131 E0.04254
G1 X123.585 Y111.989 E0.04562
G1 X122.307 Y111.603 E0.04186
G1 X121.009 Y110.909 E0.04617
G1 X119.977 Y110.062 E0.04186
G1 X119.045 Y108.922 E0.04617
G1 X118.418 Y107.743 E0.04186
G1 X117.994 Y106.329 E0.04630
G1 X117.869 Y104.999 E0.04186
G1 X118.022 Y103.531 E0.04630
G1 X118.418 Y102.256 E0.04186
G1 X119.045 Y101.078 E0.04182
G1 X119.924 Y100.003 E0.04356
G1 X120.215 Y100.240 F10800.000
G1 F1200.000
G1 X121.220 Y99.403 E0.04101
G1 X122.454 Y98.744 E0.04386
G1 X123.660 Y98.380 E0.03950
G1 X125.040 Y98.246 E0.04349
G1 X126.310 Y98.374 E0.04001
G1 X127.651 Y98.788 E0.04400
G1 X128.758 Y99.388 E0.03950
G1 X129.831 Y100.280 E0.04374
G1 X130.628 Y101.266 E0.03976
G1 X131.276 Y102.502 E0.04374
G1 X131.630 Y103.711 E0.03950
G1 X131.754 Y105.072 E0.04285
G1 X131.623 Y106.325 E0.03950
G1 X131.262 Y107.532 E0.03952
G1 X130.620 Y108.747 E0.04309
G1 X129.809 Y109.743 E0.04027
G1 X128.752 Y110.616 E0.04297
G1 X127.644 Y111.215 E0.03950
G1 X126.306 Y111.626 E0.04387
G1 X125.037 Y111.754 E0.04001
G1 X123.660 Y111.620 E0.04336
G1 X122.454 Y111.256 E0.03950
G1 X121.220 Y110.597 E0.04387
G1 X120.243 Y109.795 E0.03963
G1 X119.358 Y108.711 E0.04387
G1 X118.766 Y107.599 E0.03950
G1 X118.392 Y106.395 E0.03951
G1 X118.246 Y105.000 E0.04398
G1 X118.364 Y103.745 E0.03952
G1 X118.766 Y102.402 E0.04398
G1 X119.358 Y101.289 E0.03952
G1 X120.177 Y100.287 E0.04058
G1 X120.467 Y100.524 F10800.000
G1 F1200.000
G1 X120.511 Y100.471 E0.00215
G1 X121.428 Y99.718 E0.03720
G1 X122.595 Y99.094 E0.04152
G1 X123.730 Y98.751 E0.03715
G1 X125.042 Y98.623 E0.04133
G1 X126.232 Y98.743 E0.03751
G1 X127.502 Y99.134 E0.04168
M73 Q3 S8
G1 X128.544 Y99.699 E0.03715
G1 X129.561 Y100.543 E0.04145
G1 X130.311 Y101.470 E0.03739
G1 X130.926 Y102.645 E0.04156
M73 P3 R8
G1 X131.260 Y103.782 E0.03715
G1 X131.377 Y105.072 E0.04061
G1 X131.254 Y106.250 E0.03715
G1 X130.914 Y107.387 E0.03720
G1 X130.306 Y108.538 E0.04080
G1 X129.544 Y109.475 E0.03787
G1 X128.543 Y110.303 E0.04073
G1 X127.497 Y110.868 E0.03727
G1 X126.230 Y111.257 E0.04156
G1 X125.035 Y111.377 E0.03763
G1 X123.731 Y111.249 E0.04109
G1 X122.597 Y110.907 E0.03715
G1 X121.428 Y110.282 E0.04157
G1 X120.509 Y109.527 E0.03727
G1 X119.670 Y108.501 E0.04156
G1 X119.114 Y107.454 E0.03715
G1 X118.762 Y106.321 E0.03720
G1 X118.623 Y105.001 E0.04164
G1 X118.734 Y103.819 E0.03720
G1 X119.114 Y102.547 E0.04164
G1 X119.670 Y101.499 E0.03720
G1 X120.429 Y100.571 E0.03760
;WIPE_START
G1 F8640.000
G1 X120.511 Y100.471 E-0.02971
G1 X121.428 Y99.718 E-0.27395
G1 X122.595 Y99.094 E-0.30576
G1 X123.730 Y98.751 E-0.27362
G1 X125.042 Y98.623 E-0.30434
G1 X125.656 Y98.685 E-0.14262
;WIPE_END
G1 E-0.07000 F2100.000
G1 Z0.400 F10800.000
G1 X118.979 Y98.702
G1 Z0.200
G1 E1.40000 F2100.000
G1 F1200.000
G1 X119.641 Y98.130 E0.02742
G1 X120.352 Y97.630 E0.02728
G1 X121.042 Y97.238 E0.02485
G1 X121.866 Y96.870 E0.02831
G1 X122.696 Y96.597 E0.02741
G1 X123.546 Y96.409 E0.02728
G1 X124.333 Y96.313 E0.02485
G1 X125.235 Y96.290 E0.02829
G1 X126.087 Y96.355 E0.02680
G1 X126.942 Y96.506 E0.02723
G1 X127.714 Y96.721 E0.02511
G1 X128.556 Y97.045 E0.02830
G1 X129.271 Y97.405 E0.02509
G1 X129.947 Y97.828 E0.02500
G1 X130.668 Y98.382 E0.02851
G1 X131.313 Y98.993 E0.02788
G1 X131.789 Y99.539 E0.02271
G1 X132.320 Y100.274 E0.02842
G1 X132.780 Y101.076 E0.02901
G1 X133.150 Y101.916 E0.02875
G1 X133.400 Y102.685 E0.02538
G1 X133.577 Y103.465 E0.02507
G1 X133.691 Y104.372 E0.02865
G1 X133.710 Y105.269 E0.02815
G1 X133.647 Y106.078 E0.02543
G1 X133.507 Y106.883 E0.02560
G1 X133.265 Y107.759 E0.02850
G1 X132.943 Y108.584 E0.02777
G1 X132.621 Y109.223 E0.02245
G1 X132.135 Y110.001 E0.02876
G1 X131.580 Y110.712 E0.02827
G1 X130.953 Y111.364 E0.02838
G1 X130.409 Y111.830 E0.02245
G1 X129.662 Y112.362 E0.02876
G1 X128.859 Y112.813 E0.02889
G1 X128.042 Y113.166 E0.02788
G1 X127.354 Y113.389 E0.02270
G1 X126.474 Y113.588 E0.02829
G1 X125.603 Y113.692 E0.02750
G1 X124.727 Y113.709 E0.02748
G1 X123.946 Y113.649 E0.02455
G1 X123.056 Y113.494 E0.02831
G1 X122.228 Y113.260 E0.02700
G1 X121.435 Y112.950 E0.02670
G1 X120.702 Y112.578 E0.02578
G1 X119.944 Y112.097 E0.02813
G1 X119.284 Y111.576 E0.02635
G1 X118.684 Y111.002 E0.02604
G1 X118.130 Y110.358 E0.02665
G1 X117.647 Y109.674 E0.02626
G1 X117.223 Y108.929 E0.02686
G1 X116.881 Y108.163 E0.02632
G1 X116.610 Y107.351 E0.02684
G1 X116.423 Y106.532 E0.02634
G1 X116.314 Y105.687 E0.02671
G1 X116.289 Y104.833 E0.02678
G1 X116.348 Y103.971 E0.02711
G1 X116.494 Y103.113 E0.02728
G1 X116.701 Y102.348 E0.02485
G1 X117.019 Y101.504 E0.02828
G1 X117.405 Y100.730 E0.02713
G1 X117.862 Y100.004 E0.02689
G1 X118.359 Y99.360 E0.02551
G1 X118.938 Y98.745 E0.02646
G1 X119.212 Y99.003 F10800.000
G1 F1200.000
G1 X119.866 Y98.433 E0.02719
M73 Q4 S8
G1 X120.547 Y97.953 E0.02613
G1 X121.204 Y97.579 E0.02372
G1 X121.993 Y97.225 E0.02711
G1 X122.788 Y96.963 E0.02622
G1 X123.601 Y96.782 E0.02613
M73 P4 R8
G1 X124.352 Y96.690 E0.02372
G1 X125.216 Y96.666 E0.02711
G1 X126.031 Y96.728 E0.02562
G1 X126.850 Y96.872 E0.02608
G1 X127.587 Y97.076 E0.02397
G1 X128.395 Y97.386 E0.02714
G1 X129.079 Y97.730 E0.02398
G1 X129.725 Y98.132 E0.02388
G1 X130.416 Y98.662 E0.02731
G1 X131.035 Y99.248 E0.02673
G1 X131.489 Y99.768 E0.02162
G1 X131.998 Y100.470 E0.02721
G1 X132.439 Y101.238 E0.02776
G1 X132.794 Y102.042 E0.02755
G1 X133.035 Y102.778 E0.02426
G1 X133.204 Y103.522 E0.02393
G1 X133.314 Y104.390 E0.02744
G1 X133.333 Y105.250 E0.02697
G1 X133.273 Y106.023 E0.02431
G1 X133.141 Y106.792 E0.02446
G1 X132.911 Y107.631 E0.02729
G1 X132.602 Y108.422 E0.02663
G1 X132.296 Y109.031 E0.02137
G1 X131.832 Y109.777 E0.02755
G1 X131.289 Y110.472 E0.02764
G1 X130.700 Y111.084 E0.02663
G1 X130.183 Y111.528 E0.02137
G1 X129.468 Y112.038 E0.02755
G1 X128.699 Y112.471 E0.02765
G1 X127.917 Y112.810 E0.02673
G1 X127.262 Y113.023 E0.02162
G1 X126.419 Y113.215 E0.02711
G1 X125.586 Y113.316 E0.02631
G1 X124.746 Y113.333 E0.02632
G1 X124.001 Y113.275 E0.02343
G1 X123.149 Y113.128 E0.02712
G1 X122.356 Y112.906 E0.02583
G1 X121.597 Y112.610 E0.02555
G1 X120.896 Y112.255 E0.02463
G1 X120.170 Y111.794 E0.02695
G1 X119.538 Y111.297 E0.02521
G1 X118.964 Y110.749 E0.02490
G1 X118.432 Y110.133 E0.02551
G1 X117.970 Y109.479 E0.02511
G1 X117.564 Y108.767 E0.02569
G1 X117.230 Y108.018 E0.02573
G1 X116.971 Y107.241 E0.02568
G1 X116.792 Y106.457 E0.02519
G1 X116.690 Y105.649 E0.02556
G1 X116.666 Y104.849 E0.02506
G1 X116.721 Y104.024 E0.02594
G1 X116.860 Y103.202 E0.02613
G1 X117.057 Y102.472 E0.02372
G1 X117.361 Y101.663 E0.02709
G1 X117.730 Y100.922 E0.02595
G1 X118.166 Y100.227 E0.02574
G1 X118.641 Y99.611 E0.02437
G1 X119.171 Y99.047 E0.02428
G1 X119.445 Y99.304 F10800.000
G1 F1200.000
G1 X120.091 Y98.735 E0.02697
G1 X120.742 Y98.276 E0.02498
G1 X121.368 Y97.919 E0.02259
G1 X122.121 Y97.580 E0.02592
G1 X122.879 Y97.329 E0.02503
G1 X123.657 Y97.155 E0.02498
G1 X124.372 Y97.066 E0.02259
G1 X125.198 Y97.043 E0.02592
G1 X125.976 Y97.101 E0.02444
G1 X126.759 Y97.238 E0.02494
G1 X127.461 Y97.431 E0.02283
G1 X128.235 Y97.727 E0.02597
G1 X128.887 Y98.055 E0.02288
G1 X129.503 Y98.438 E0.02275
G1 X130.164 Y98.943 E0.02610
G1 X130.758 Y99.504 E0.02558
G1 X131.189 Y99.996 E0.02054
G1 X131.677 Y100.667 E0.02600
G1 X132.099 Y101.400 E0.02651
G1 X132.439 Y102.169 E0.02635
G1 X132.669 Y102.870 E0.02315
G1 X132.831 Y103.579 E0.02280
G1 X132.937 Y104.408 E0.02621
G1 X132.956 Y105.249 E0.02635
G1 X132.898 Y105.985 E0.02315
G1 X132.775 Y106.701 E0.02279
G1 X132.555 Y107.504 E0.02609
G1 X132.261 Y108.262 E0.02549
G1 X131.971 Y108.840 E0.02028
G1 X131.528 Y109.554 E0.02633
G1 X131.011 Y110.218 E0.02641
G1 X130.447 Y110.804 E0.02549
G1 X129.957 Y111.226 E0.02028
G1 X129.274 Y111.715 E0.02633
G1 X128.540 Y112.129 E0.02642
G1 X127.792 Y112.454 E0.02559
G1 X127.169 Y112.657 E0.02053
G1 X126.363 Y112.842 E0.02591
G1 X125.550 Y112.940 E0.02569
G1 X124.748 Y112.955 E0.02514
G1 X124.056 Y112.902 E0.02176
G1 X123.241 Y112.762 E0.02595
G1 X122.484 Y112.551 E0.02464
G1 X121.742 Y112.262 E0.02496
G1 X121.090 Y111.931 E0.02293
G1 X120.395 Y111.492 E0.02578
G1 X119.791 Y111.018 E0.02406
G1 X119.243 Y110.495 E0.02375
G1 X118.735 Y109.907 E0.02438
G1 X118.292 Y109.284 E0.02396
G1 X117.904 Y108.605 E0.02453
G1 X117.584 Y107.889 E0.02457
G1 X117.336 Y107.147 E0.02453
G1 X117.165 Y106.400 E0.02404
G1 X117.066 Y105.628 E0.02442
G1 X117.043 Y104.865 E0.02392
G1 X117.095 Y104.077 E0.02476
G1 X117.227 Y103.291 E0.02498
G1 X117.414 Y102.596 E0.02259
M73 Q5 S8
G1 X117.703 Y101.822 E0.02590
G1 X118.054 Y101.114 E0.02477
G1 X118.471 Y100.449 E0.02460
G1 X118.922 Y99.862 E0.02322
M73 P5 R8
G1 X119.404 Y99.348 E0.02211
;WIPE_START
G1 F8640.000
G1 X120.091 Y98.735 E-0.21243
G1 X120.742 Y98.276 E-0.18398
G1 X121.368 Y97.919 E-0.16634
G1 X122.121 Y97.580 E-0.19086
G1 X122.879 Y97.329 E-0.18434
G1 X123.657 Y97.155 E-0.18398
G1 X124.372 Y97.066 E-0.16634
G1 X124.552 Y97.061 E-0.04174
;WIPE_END
G1 E-0.07000 F2100.000
G1 Z0.400 F10800.000
G1 X120.766 Y100.645
G1 Z0.200
G1 E1.40000 F2100.000
G1 F1200.000
G1 X121.223 Y100.244 E0.01906
G1 X121.723 Y99.887 E0.01926
G1 X122.190 Y99.616 E0.01693
G1 X122.768 Y99.351 E0.01993
G1 X123.344 Y99.157 E0.01906
G1 X123.942 Y99.019 E0.01926
G1 X124.478 Y98.949 E0.01693
G1 X125.113 Y98.927 E0.01994
G1 X125.720 Y98.969 E0.01906
G1 X126.324 Y99.072 E0.01923
G1 X126.837 Y99.211 E0.01665
G1 X127.438 Y99.437 E0.02015
G1 X127.935 Y99.683 E0.01739
G1 X128.401 Y99.968 E0.01711
G1 X128.911 Y100.353 E0.02004
G1 X129.374 Y100.785 E0.01987
G1 X129.695 Y101.147 E0.01515
G1 X130.073 Y101.659 E0.01996
G1 X130.398 Y102.216 E0.02024
G1 X130.665 Y102.808 E0.02034
G1 X130.843 Y103.341 E0.01762
G1 X130.968 Y103.873 E0.01714
G1 X131.054 Y104.507 E0.02008
G1 X131.072 Y105.156 E0.02034
G1 X131.032 Y105.716 E0.01762
G1 X130.943 Y106.256 E0.01714
G1 X130.778 Y106.873 E0.02004
G1 X130.552 Y107.464 E0.01982
G1 X130.342 Y107.890 E0.01489
G1 X130.005 Y108.441 E0.02027
G1 X129.612 Y108.952 E0.02021
G1 X129.177 Y109.410 E0.01982
G1 X128.819 Y109.723 E0.01489
G1 X128.296 Y110.102 E0.02027
G1 X127.737 Y110.422 E0.02021
G1 X127.157 Y110.678 E0.01987
G1 X126.699 Y110.831 E0.01515
G1 X126.079 Y110.977 E0.01995
G1 X125.460 Y111.056 E0.01957
G1 X124.824 Y111.071 E0.01995
G1 X124.324 Y111.036 E0.01571
G1 X123.696 Y110.932 E0.01998
G1 X123.087 Y110.764 E0.01979
G1 X122.501 Y110.536 E0.01971
G1 X122.054 Y110.311 E0.01569
G1 X121.516 Y109.975 E0.01991
G1 X121.041 Y109.605 E0.01887
G1 X120.613 Y109.200 E0.01848
G1 X120.192 Y108.710 E0.02024
G1 X119.886 Y108.276 E0.01665
G1 X119.588 Y107.756 E0.01880
G1 X119.337 Y107.194 E0.01930
G1 X119.158 Y106.659 E0.01768
G1 X119.025 Y106.091 E0.01831
G1 X118.947 Y105.499 E0.01870
G1 X118.927 Y104.936 E0.01766
G1 X118.963 Y104.335 E0.01889
G1 X119.061 Y103.729 E0.01926
G1 X119.198 Y103.206 E0.01693
G1 X119.417 Y102.609 E0.01994
G1 X119.681 Y102.068 E0.01886
G1 X119.997 Y101.556 E0.01888
G1 X120.335 Y101.112 E0.01749
G1 X120.726 Y100.689 E0.01805
G1 X121.002 Y100.944 F10800.000
G1 F1200.000
G1 X121.451 Y100.545 E0.01883
G1 X121.920 Y100.208 E0.01811
G1 X122.356 Y99.955 E0.01580
G1 X122.899 Y99.705 E0.01874
G1 X123.438 Y99.522 E0.01786
G1 X124.001 Y99.392 E0.01811
G1 X124.501 Y99.326 E0.01580
G1 X125.098 Y99.304 E0.01874
G1 X125.666 Y99.342 E0.01786
G1 X126.235 Y99.439 E0.01809
G1 X126.713 Y99.567 E0.01552
G1 X127.280 Y99.779 E0.01899
G1 X127.746 Y100.009 E0.01629
G1 X128.182 Y100.275 E0.01598
G1 X128.661 Y100.636 E0.01882
G1 X129.098 Y101.043 E0.01873
G1 X129.397 Y101.378 E0.01407
G1 X129.753 Y101.859 E0.01876
G1 X130.059 Y102.381 E0.01898
G1 X130.310 Y102.937 E0.01914
G1 X130.478 Y103.436 E0.01652
G1 X130.596 Y103.933 E0.01601
G1 X130.677 Y104.529 E0.01885
G1 X130.695 Y105.139 E0.01914
G1 X130.658 Y105.664 E0.01652
G1 X130.576 Y106.168 E0.01601
G1 X130.422 Y106.749 E0.01882
G1 X130.210 Y107.306 E0.01869
G1 X130.016 Y107.701 E0.01381
G1 X129.700 Y108.220 E0.01905
G1 X129.332 Y108.700 E0.01896
G1 X128.922 Y109.132 E0.01869
G1 X128.590 Y109.423 E0.01381
G1 X128.099 Y109.780 E0.01905
G1 X127.575 Y110.082 E0.01896
G1 X127.029 Y110.324 E0.01873
G1 X126.603 Y110.466 E0.01407
G1 X126.021 Y110.604 E0.01876
G1 X125.441 Y110.680 E0.01834
G1 X124.841 Y110.695 E0.01880
G1 X124.376 Y110.662 E0.01462
G1 X123.785 Y110.566 E0.01878
G1 X123.214 Y110.409 E0.01856
G1 X122.662 Y110.195 E0.01857
G1 X122.246 Y109.986 E0.01460
G1 X121.739 Y109.671 E0.01872
G1 X121.293 Y109.325 E0.01768
G1 X120.879 Y108.933 E0.01787
G1 X120.484 Y108.472 E0.01904
G1 X120.200 Y108.067 E0.01552
G1 X119.920 Y107.578 E0.01768
G1 X119.685 Y107.049 E0.01813
G1 X119.523 Y106.565 E0.01600
G1 X119.395 Y106.014 E0.01773
G1 X119.322 Y105.460 E0.01755
G1 X119.304 Y104.949 E0.01601
G1 X119.337 Y104.385 E0.01772
G1 X119.428 Y103.815 E0.01811
