; generated by PrusaSlicer 2.3.0+win64 on 2021-04-22 at 04:10:50 UTC

; 

; external perimeters extrusion width = 0.45mm
; perimeters extrusion width = 0.45mm
; infill extrusion width = 0.45mm
; solid infill extrusion width = 0.45mm
; top infill extrusion width = 0.40mm
; first layer extrusion width = 0.42mm

M73 P0 R136
M73 Q0 S137
M201 X1000 Y1000 Z200 E5000 ; sets maximum accelerations, mm/sec^2
M203 X200 Y200 Z12 E120 ; sets maximum feedrates, mm/sec
M204 P1250 R1250 T1250 ; sets acceleration (P, T) and retract acceleration (R), mm/sec^2
M205 X8.00 Y8.00 Z0.40 E4.50 ; sets the jerk limits, mm/sec
M205 S0 T0 ; sets the minimum extruding and travel feed rate, mm/sec
M107
;TYPE:Custom
M862.3 P "MK3" ; printer model check
M862.1 P0.4 ; nozzle diameter check
M115 U3.9.3 ; tell printer latest fw version
G90 ; use absolute coordinates
M83 ; extruder relative mode
M104 S240 ; set extruder temp
M140 S85 ; set bed temp
M190 S85 ; wait for bed temp
M109 S240 ; wait for extruder temp
G28 W ; home all without mesh bed level
G80 ; mesh bed leveling
G1 Y-3.0 F1000.0 ; go outside print area
G92 E0.0
G1 X60.0 E9.0 F1000.0 ; intro line
G1 X100.0 E12.5 F1000.0 ; intro line
G92 E0.0
M221 S95

; Don't change E values below. Excessive value can damage the printer.

M907 E538 ; set extruder motor current
G21 ; set units to millimeters
G90 ; use absolute coordinates
M83 ; use relative distances for extrusion
M900 K0.08 ; Filament gcode LA 1.5
M900 K45 ; Filament gcode LA 1.0
;LAYER_CHANGE
;Z:0.2
;HEIGHT:0.2
;BEFORE_LAYER_CHANGE
G92 E0.0
;0.2


G1 E-1.40000 F2100.000
G1 Z0.200 F10800.000
;AFTER_LAYER_CHANGE
;0.2
G1 Z0.400
G1 X64.669 Y65.962
G1 Z0.200
G1 E1.40000 F2100.000
M204 S1000
;TYPE:Skirt
;WIDTH:0.42
G1 F1200.000
G1 X66.019 Y65.790 E0.04266
G1 X183.952 Y65.839 E3.69772
G1 X184.706 Y65.893 E0.02371
G1 X185.526 Y66.071 E0.02630
G1 X186.245 Y66.336 E0.02404
G1 X187.272 Y66.929 E0.03717
G1 X198.472 Y77.309 E0.47879
G1 X199.603 Y78.541 E0.05245
G1 X200.559 Y80.050 E0.05600
G1 X201.008 Y81.060 E0.03465
G1 X201.470 Y82.715 E0.05387
G1 X201.634 Y84.463 E0.05506
G1 X201.451 Y86.373 E0.06017
G1 X189.455 Y139.867 E1.71891
G1 X189.174 Y140.715 E0.02801
G1 X188.586 Y141.785 E0.03828
G1 X187.606 Y142.860 E0.04563
G1 X186.480 Y143.604 E0.04231
G1 X185.155 Y144.074 E0.04409
G1 X184.062 Y144.210 E0.03451
G1 X66.033 Y144.210 E3.70073
G1 X65.279 Y144.157 E0.02371
G1 X64.459 Y143.979 E0.02631
G1 X63.739 Y143.714 E0.02404
G1 X62.712 Y143.121 E0.03719
G1 X51.491 Y132.647 E0.48128
G1 X50.302 Y131.332 E0.05559
G1 X49.373 Y129.822 E0.05559
G1 X48.708 Y128.066 E0.05888
G1 X48.420 Y126.523 E0.04920
G1 X48.368 Y125.622 E0.02830
G1 X48.523 Y123.780 E0.05796
G1 X60.537 Y70.099 E1.72475
G1 X60.844 Y69.201 E0.02977
G1 X61.542 Y68.015 E0.04313
G1 X62.503 Y67.037 E0.04302
G1 X63.342 Y66.482 E0.03154
G1 X64.613 Y65.984 E0.04278
; printing object viko.stl id:0 copy 0
;WIPE_START
G1 F8640.000
G1 X66.019 Y65.790 E-0.32763
G1 X70.360 Y65.792 E-1.00237
;WIPE_END
G1 E-0.07000 F2100.000
G1 Z0.400 F10800.000
G1 X96.116 Y109.406
G1 Z0.200
G1 E1.40000 F2100.000
;TYPE:External perimeter
G1 F1200.000
G1 X96.093 Y109.735 E0.01033
G1 X95.968 Y109.622 E0.00528
G1 X96.088 Y109.460 E0.00636
G1 X95.843 Y109.222 F10800.000
;WIPE_START
G1 F8640.000
G1 X96.093 Y109.735 E-0.06364
G1 X95.968 Y109.622 E-0.03892
G1 X96.088 Y109.460 E-0.04683
;WIPE_END
G1 E-1.25061 F2100.000
G1 Z0.400 F10800.000
G1 X92.796 Y103.043
G1 Z0.200
G1 E1.40000 F2100.000
G1 F1200.000
G1 X92.598 Y103.092 E0.00640
G1 X92.534 Y103.183 E0.00347
G1 X92.418 Y103.162 E0.00371
G1 X92.336 Y103.116 E0.00295
G1 X92.239 Y102.985 E0.00510
G1 X92.151 Y102.691 E0.00961
G1 X92.622 Y102.823 E0.01533
G1 X92.694 Y102.856 E0.00250
G1 X92.831 Y102.973 E0.00564
G1 X92.826 Y102.991 E0.00056
G1 X92.596 Y103.003 F10800.000
;WIPE_START
G1 F8640.000
G1 X92.598 Y103.092 E-0.05766
G1 X92.534 Y103.183 E-0.02556
G1 X92.418 Y103.162 E-0.02734
G1 X92.336 Y103.116 E-0.02175
G1 X92.239 Y102.985 E-0.03755
G1 X92.151 Y102.691 E-0.07077
G1 X92.622 Y102.823 E-0.11290
G1 X92.694 Y102.856 E-0.01840
G1 X92.831 Y102.973 E-0.04153
G1 X92.826 Y102.991 E-0.00415
;WIPE_END
G1 E-0.98240 F2100.000
G1 Z0.400 F10800.000
G1 X92.929 Y101.850
G1 Z0.200
G1 E1.40000 F2100.000
G1 F1200.000
G1 X92.532 Y101.747 E0.01285
G1 X92.547 Y101.733 E0.00063
G1 X92.501 Y101.684 E0.00209
G1 X92.615 Y101.660 E0.00365
G1 X92.682 Y101.559 E0.00378
G1 X92.721 Y101.563 E0.00125
G1 X92.822 Y101.608 E0.00347
G1 X92.880 Y101.683 E0.00296
G1 X92.912 Y101.793 E0.00357
G1 X92.589 Y101.639 F10800.000
;WIPE_START
G1 F8640.000
G1 X92.532 Y101.747 E-0.08833
G1 X92.547 Y101.733 E-0.00467
G1 X92.501 Y101.684 E-0.01538
G1 X92.615 Y101.660 E-0.02688
G1 X92.682 Y101.559 E-0.02783
G1 X92.721 Y101.563 E-0.00921
G1 X92.822 Y101.608 E-0.02554
G1 X92.880 Y101.683 E-0.02182
G1 X92.912 Y101.793 E-0.02631
;WIPE_END
G1 E-1.15402 F2100.000
G1 Z0.400 F10800.000
G1 X66.457 Y120.597
G1 Z0.200
G1 E1.40000 F2100.000
G1 F1200.000
G1 X66.505 Y120.764 E0.00545
G1 X66.109 Y120.660 E0.01285
G1 X66.124 Y120.646 E0.00063
G1 X66.078 Y120.597 E0.00209
G1 X66.192 Y120.573 E0.00365
G1 X66.259 Y120.473 E0.00378
G1 X66.400 Y120.522 E0.00467
G1 X66.421 Y120.549 E0.00108
G1 X66.370 Y120.748 F10800.000
;WIPE_START
G1 F8640.000
G1 X66.505 Y120.764 E-0.05332
G1 X66.109 Y120.660 E-0.09465
G1 X66.124 Y120.646 E-0.00467
G1 X66.078 Y120.597 E-0.01538
G1 X66.192 Y120.573 E-0.02688
G1 X66.259 Y120.473 E-0.02783
G1 X66.400 Y120.522 E-0.03439
G1 X66.421 Y120.549 E-0.00797
;WIPE_END
G1 E-1.13491 F2100.000
G1 Z0.400 F10800.000
G1 X66.268 Y121.770
G1 Z0.200
G1 E1.40000 F2100.000
G1 F1200.000
G1 X66.407 Y121.892 E0.00581
G1 X66.369 Y121.956 E0.00235
G1 X66.171 Y122.005 E0.00640
G1 X66.107 Y122.095 E0.00347
G1 X65.990 Y122.074 E0.00371
G1 X65.908 Y122.028 E0.00295
G1 X65.812 Y121.897 E0.00510
G1 X65.725 Y121.603 E0.00961
G1 X66.213 Y121.745 E0.01594
G1 X66.292 Y121.953 F10800.000
;WIPE_START
G1 F8640.000
G1 X66.407 Y121.892 E-0.05615
G1 X66.369 Y121.956 E-0.01730
G1 X66.171 Y122.005 E-0.04711
G1 X66.107 Y122.095 E-0.02556
G1 X65.990 Y122.074 E-0.02734
G1 X65.908 Y122.028 E-0.02175
G1 X65.812 Y121.897 E-0.03755
G1 X65.725 Y121.603 E-0.07077
G1 X66.213 Y121.745 E-0.11739
;WIPE_END
G1 E-0.97908 F2100.000
G1 Z0.400 F10800.000
G1 X120.346 Y82.537
G1 Z0.200
G1 E1.40000 F2100.000
;TYPE:Perimeter
G1 F1200.000
G1 X120.322 Y82.320 E0.00684
G1 X120.371 Y82.195 E0.00422
G1 X120.427 Y82.142 E0.00240
G1 X121.139 Y81.894 E0.02364
G1 X121.950 Y82.137 E0.02654
G1 X122.108 Y82.253 E0.00616
G1 X122.148 Y82.348 E0.00324
G1 X122.127 Y82.541 E0.00609
G1 X122.046 Y82.647 E0.00418
G1 X121.911 Y82.719 E0.00480
G1 X121.727 Y82.785 E0.00613
G1 X121.499 Y82.817 E0.00722
G1 X120.935 Y82.817 E0.01766
G1 X120.725 Y82.787 E0.00664
G1 X120.434 Y82.656 E0.01001
G1 X120.378 Y82.587 E0.00279
;WIPE_START
G1 F8640.000
G1 X120.322 Y82.320 E-0.06301
G1 X120.371 Y82.195 E-0.03108
G1 X120.427 Y82.142 E-0.01765
G1 X121.139 Y81.894 E-0.17412
G1 X121.950 Y82.137 E-0.19545
G1 X122.108 Y82.253 E-0.04537
G1 X122.148 Y82.348 E-0.02385
G1 X122.127 Y82.541 E-0.04485
G1 X122.046 Y82.647 E-0.03078
G1 X121.911 Y82.719 E-0.03536
G1 X121.727 Y82.785 E-0.04515
G1 X121.499 Y82.817 E-0.05318
G1 X120.935 Y82.817 E-0.13009
G1 X120.725 Y82.787 E-0.04892
G1 X120.434 Y82.656 E-0.07375
G1 X120.378 Y82.587 E-0.02054
;WIPE_END
G1 E-0.36685 F2100.000
G1 Z0.400 F10800.000
G1 X121.114 Y81.155
G1 Z0.200
G1 E1.40000 F2100.000
G1 F1200.000
G1 X121.010 Y80.779 E0.01222
G1 X120.863 Y80.383 E0.01326
G1 X120.747 Y80.190 E0.00706
G1 X121.247 Y80.215 E0.01572
G1 X121.559 Y80.178 E0.00984
G1 X121.423 Y80.384 E0.00774
G1 X121.220 Y80.829 E0.01534
G1 X121.132 Y81.098 E0.00888
;WIPE_START
G1 F8640.000
G1 X121.010 Y80.779 E-0.07877
G1 X120.863 Y80.383 E-0.09767
G1 X120.747 Y80.190 E-0.05200
G1 X121.247 Y80.215 E-0.11575
G1 X121.559 Y80.178 E-0.07243
G1 X121.423 Y80.384 E-0.05697
G1 X121.220 Y80.829 E-0.11293
G1 X121.132 Y81.098 E-0.06540
;WIPE_END
G1 E-0.74808 F2100.000
G1 Z0.400 F10800.000
G1 X139.064 Y76.130
G1 Z0.200
G1 E1.40000 F2100.000
G1 F1200.000
G1 X139.088 Y76.032 E0.00316
G1 X139.165 Y76.116 E0.00356
G1 X139.124 Y76.122 E0.00130
;WIPE_START
G1 F8640.000
G1 X139.088 Y76.032 E-0.02227
G1 X139.165 Y76.116 E-0.02625
G1 X139.124 Y76.122 E-0.00956
;WIPE_END
G1 E-1.34192 F2100.000
G1 Z0.400 F10800.000
G1 X149.314 Y83.682
G1 Z0.200
G1 E1.40000 F2100.000
G1 F1200.000
G1 X149.519 Y83.859 E0.00850
G1 X149.279 Y83.892 E0.00760
G1 X149.304 Y83.741 E0.00479
;WIPE_START
G1 F8640.000
G1 X149.519 Y83.859 E-0.05662
G1 X149.279 Y83.892 E-0.05595
G1 X149.304 Y83.741 E-0.03526
;WIPE_END
G1 E-1.25216 F2100.000
G1 Z0.400 F10800.000
G1 X151.904 Y90.335
G1 Z0.200
G1 E1.40000 F2100.000
G1 F1200.000
G1 X152.443 Y90.426 E0.01714
M73 P0 R135
G1 X152.440 Y93.539 E0.09762
G1 X151.845 Y92.602 E0.03482
G1 X151.305 Y91.902 E0.02772
G1 X151.178 Y91.840 E0.00443
G1 X151.417 Y91.770 E0.00780
G1 X151.818 Y91.192 E0.02207
G1 X151.921 Y90.894 E0.00988
G1 X151.913 Y90.394 E0.01569
;WIPE_START
G1 F8640.000
G1 X152.443 Y90.426 E-0.12258
G1 X152.440 Y93.539 E-0.71888
G1 X151.845 Y92.602 E-0.25643
G1 X151.305 Y91.902 E-0.20417
G1 X151.196 Y91.849 E-0.02794
;WIPE_END
G1 E-0.07000 F2100.000
G1 Z0.400 F10800.000
G1 X159.422 Y90.462
G1 Z0.200
G1 E1.40000 F2100.000
G1 F1200.000
G1 X159.605 Y90.430 E0.00583
G1 X159.708 Y90.441 E0.00324
G1 X159.775 Y90.477 E0.00238
G1 X159.832 Y90.543 E0.00273
G1 X160.090 Y91.240 E0.02331
G1 X159.839 Y92.058 E0.02683
G1 X159.716 Y92.226 E0.00653
G1 X159.655 Y92.253 E0.00208
G1 X159.589 Y92.261 E0.00209
G1 X159.432 Y92.237 E0.00498
G1 X159.326 Y92.156 E0.00418
G1 X159.254 Y92.021 E0.00480
G1 X159.189 Y91.836 E0.00613
G1 X159.158 Y91.608 E0.00722
G1 X159.159 Y91.045 E0.01766
G1 X159.205 Y90.779 E0.00845
G1 X159.330 Y90.538 E0.00850
G1 X159.376 Y90.500 E0.00187
;WIPE_START
G1 F8640.000
G1 X159.605 Y90.430 E-0.05544
G1 X159.708 Y90.441 E-0.02384
G1 X159.775 Y90.477 E-0.01756
G1 X159.832 Y90.543 E-0.02008
G1 X160.090 Y91.240 E-0.17169
G1 X159.839 Y92.058 E-0.19758
G1 X159.716 Y92.226 E-0.04807
G1 X159.655 Y92.253 E-0.01531
G1 X159.589 Y92.261 E-0.01537
G1 X159.432 Y92.237 E-0.03670
G1 X159.326 Y92.156 E-0.03078
G1 X159.254 Y92.021 E-0.03535
G1 X159.189 Y91.836 E-0.04515
G1 X159.158 Y91.608 E-0.05318
G1 X159.159 Y91.045 E-0.13009
G1 X159.205 Y90.779 E-0.06224
G1 X159.330 Y90.538 E-0.06259
G1 X159.376 Y90.500 E-0.01380
;WIPE_END
G1 E-0.36517 F2100.000
G1 Z0.400 F10800.000
G1 X160.805 Y91.229
G1 Z0.200
G1 E1.40000 F2100.000
G1 F1200.000
G1 X161.203 Y91.118 E0.01296
G1 X161.644 Y90.936 E0.01498
G1 X161.613 Y91.432 E0.01558
G1 X161.652 Y91.592 E0.00519
G1 X161.289 Y91.408 E0.01279
G1 X160.861 Y91.250 E0.01430
;WIPE_START
G1 F8640.000
G1 X161.203 Y91.118 E-0.08462
G1 X161.644 Y90.936 E-0.11030
G1 X161.613 Y91.432 E-0.11473
G1 X161.652 Y91.592 E-0.03821
G1 X161.289 Y91.408 E-0.09417
G1 X160.861 Y91.250 E-0.10530
;WIPE_END
G1 E-0.85267 F2100.000
G1 Z0.400 F10800.000
G1 X170.283 Y89.219
G1 Z0.200
G1 E1.40000 F2100.000
G1 F1200.000
G1 X170.043 Y88.234 E0.03178
G1 X170.511 Y88.313 E0.01486
G1 X170.295 Y89.160 E0.02741
;WIPE_START
G1 F8640.000
G1 X170.043 Y88.234 E-0.22159
G1 X170.511 Y88.313 E-0.10947
G1 X170.295 Y89.160 E-0.20186
;WIPE_END
G1 E-0.86709 F2100.000
G1 Z0.400 F10800.000
G1 X170.521 Y85.983
G1 Z0.200
G1 E1.40000 F2100.000
G1 F1200.000
G1 X170.358 Y85.957 E0.00518
G1 X170.456 Y85.756 E0.00703
G1 X170.502 Y85.926 E0.00550
;WIPE_START
G1 F8640.000
G1 X170.358 Y85.957 E-0.03415
G1 X170.456 Y85.756 E-0.05178
G1 X170.502 Y85.926 E-0.04052
;WIPE_END
G1 E-1.27355 F2100.000
G1 Z0.400 F10800.000
G1 X171.493 Y76.340
G1 Z0.200
G1 E1.40000 F2100.000
G1 F1200.000
G1 X171.470 Y76.196 E0.00457
G1 X171.048 Y75.502 E0.02546
G1 X171.013 Y75.493 E0.00113
G1 X171.058 Y75.357 E0.00448
G1 X171.727 Y75.585 E0.02214
G1 X172.145 Y75.655 E0.01330
G1 X171.844 Y75.932 E0.01284
G1 X171.527 Y76.290 E0.01499
;WIPE_START
G1 F8640.000
G1 X171.470 Y76.196 E-0.02541
G1 X171.048 Y75.502 E-0.18752
G1 X171.013 Y75.493 E-0.00833
G1 X171.058 Y75.357 E-0.03301
G1 X171.727 Y75.585 E-0.16308
G1 X172.145 Y75.655 E-0.09797
G1 X171.844 Y75.932 E-0.09458
G1 X171.527 Y76.290 E-0.11042
;WIPE_END
G1 E-0.67969 F2100.000
G1 Z0.400 F10800.000
G1 X168.109 Y76.262
G1 Z0.200
G1 E1.40000 F2100.000
G1 F1200.000
G1 X167.985 Y76.251 E0.00388
G1 X167.300 Y76.283 E0.02152
G1 X167.479 Y75.959 E0.01162
G1 X167.552 Y75.617 E0.01096
G1 X167.571 Y75.260 E0.01119
G1 X167.934 Y75.354 E0.01176
G1 X168.241 Y75.380 E0.00965
G1 X168.184 Y75.613 E0.00753
G1 X168.116 Y76.202 E0.01859
;WIPE_START
G1 F8640.000
G1 X167.985 Y76.251 E-0.03218
G1 X167.300 Y76.283 E-0.15850
G1 X167.479 Y75.959 E-0.08557
G1 X167.552 Y75.617 E-0.08070
G1 X167.571 Y75.260 E-0.08241
G1 X167.934 Y75.354 E-0.08660
G1 X168.241 Y75.380 E-0.07106
G1 X168.184 Y75.613 E-0.05544
G1 X168.116 Y76.202 E-0.13693
;WIPE_END
G1 E-0.61060 F2100.000
G1 Z0.400 F10800.000
G1 X158.314 Y76.077
G1 Z0.200
G1 E1.40000 F2100.000
G1 F1200.000
G1 X158.118 Y76.093 E0.00618
G1 X158.129 Y75.905 E0.00588
G1 X158.267 Y76.040 E0.00604
;WIPE_START
G1 F8640.000
G1 X158.118 Y76.093 E-0.03662
G1 X158.129 Y75.905 E-0.04333
G1 X158.267 Y76.040 E-0.04447
;WIPE_END
G1 E-1.27558 F2100.000
G1 Z0.400 F10800.000
G1 X157.640 Y76.867
G1 Z0.200
G1 E1.40000 F2100.000
G1 F1200.000
G1 X157.649 Y76.892 E0.00084
G1 X157.580 Y76.871 E0.00225
;WIPE_START
G1 F8640.000
G1 X157.649 Y76.892 E-0.01659
G1 X157.580 Y76.871 E-0.01659
;WIPE_END
G1 E-1.36682 F2100.000
G1 Z0.400 F10800.000
G1 X128.368 Y121.222
G1 Z0.200
G1 E1.40000 F2100.000
G1 F1200.000
G1 X128.376 Y123.716 E0.07821
G1 X127.378 Y123.719 E0.03129
G1 X127.385 Y125.749 E0.06364
G1 X125.522 Y125.755 E0.05840
G1 X121.821 Y123.244 E0.14025
G1 X121.814 Y121.243 E0.06274
G1 X124.961 Y121.233 E0.09865
G1 X124.959 Y120.617 E0.01930
G1 X127.368 Y120.609 E0.07556
G1 X127.370 Y121.225 E0.01930
G1 X128.308 Y121.222 E0.02941
G1 X127.992 Y121.600 F10800.000
;TYPE:External perimeter
G1 F1200.000
G1 X127.998 Y123.340 E0.05456
G1 X127.000 Y123.343 E0.03129
G1 X127.007 Y125.373 E0.06364
G1 X125.638 Y125.377 E0.04292
G1 X122.197 Y123.043 E0.13035
G1 X122.193 Y121.619 E0.04467
G1 X125.339 Y121.608 E0.09865
G1 X125.337 Y120.993 E0.01930
G1 X126.992 Y120.987 E0.05191
G1 X126.994 Y121.603 E0.01930
G1 X127.932 Y121.600 E0.02941
G1 X128.386 Y121.672 F10800.000
;WIPE_START
G1 F8640.000
G1 X127.998 Y123.340 E-0.40205
G1 X127.000 Y123.343 E-0.23043
G1 X127.007 Y125.373 E-0.46868
G1 X126.016 Y125.376 E-0.22884
;WIPE_END
G1 E-0.07000 F2100.000
G1 Z0.400 F10800.000
G1 X128.419 Y136.933
G1 Z0.200
G1 E1.40000 F2100.000
;TYPE:Perimeter
G1 F1200.000
G1 X121.886 Y136.954 E0.20486
G1 X121.877 Y134.325 E0.08242
G1 X121.894 Y133.783 E0.01701
G1 X121.995 Y133.167 E0.01957
G1 X122.250 Y132.585 E0.01992
G1 X122.456 Y132.308 E0.01082
G1 X122.685 Y132.061 E0.01054
G1 X123.094 Y131.783 E0.01554
G1 X122.853 Y131.673 E0.00832
G1 X122.578 Y131.481 E0.01053
G1 X122.339 Y131.245 E0.01052
G1 X122.158 Y130.980 E0.01005
G1 X122.007 Y130.692 E0.01021
G1 X121.827 Y130.066 E0.02042
G1 X121.776 Y129.418 E0.02037
G1 X121.796 Y128.964 E0.01426
G1 X121.879 Y128.465 E0.01587
G1 X122.073 Y127.983 E0.01628
G1 X122.355 Y127.503 E0.01747
G1 X122.719 Y127.188 E0.01509
G1 X122.926 Y127.043 E0.00790
G1 X123.188 Y126.917 E0.00914
G1 X123.655 Y126.813 E0.01497
G1 X124.827 Y126.811 E0.03675
G1 X124.789 Y127.084 E0.00862
G1 X124.922 Y126.953 E0.00581
G1 X125.227 Y126.774 E0.01110
G1 X125.546 Y126.650 E0.01073
G1 X125.914 Y126.592 E0.01168
G1 X126.165 Y126.575 E0.00789
G1 X126.478 Y126.602 E0.00987
G1 X126.796 Y126.665 E0.01014
G1 X127.096 Y126.783 E0.01011
G1 X127.384 Y126.934 E0.01021
G1 X127.649 Y127.141 E0.01053
G1 X127.897 Y127.388 E0.01097
G1 X128.085 Y127.665 E0.01050
G1 X128.246 Y127.973 E0.01089
G1 X128.435 Y128.663 E0.02244
G1 X128.484 Y129.341 E0.02129
G1 X128.459 Y129.818 E0.01498
G1 X128.373 Y130.313 E0.01577
G1 X128.275 Y130.590 E0.00922
G1 X128.155 Y130.837 E0.00858
G1 X127.856 Y131.320 E0.01784
G1 X127.411 Y131.654 E0.01743
G1 X127.159 Y131.791 E0.00900
G1 X127.327 Y131.873 E0.00587
G1 X127.650 Y132.110 E0.01259
G1 X127.869 Y132.360 E0.01039
G1 X128.048 Y132.623 E0.00997
