; generated by PrusaSlicer 2.3.0+win64 on 2021-03-17 at 10:13:46 UTC

; 

; external perimeters extrusion width = 0.45mm
; perimeters extrusion width = 0.45mm
; infill extrusion width = 0.45mm
; solid infill extrusion width = 0.45mm
; top infill extrusion width = 0.40mm
; first layer extrusion width = 0.42mm

M73 P0 R184
M73 Q0 S186
M201 X1000 Y1000 Z200 E5000 ; sets maximum accelerations, mm/sec^2
M203 X200 Y200 Z12 E120 ; sets maximum feedrates, mm/sec
M204 P1250 R1250 T1250 ; sets acceleration (P, T) and retract acceleration (R), mm/sec^2
M205 X8.00 Y8.00 Z0.40 E4.50 ; sets the jerk limits, mm/sec
M205 S0 T0 ; sets the minimum extruding and travel feed rate, mm/sec
M107
;TYPE:Custom
M862.3 P "MK3" ; printer model check
M862.1 P0.4 ; nozzle diameter check
M115 U3.9.3 ; tell printer latest fw version
G90 ; use absolute coordinates
M83 ; extruder relative mode
M104 S240 ; set extruder temp
M140 S85 ; set bed temp
M190 S85 ; wait for bed temp
M109 S240 ; wait for extruder temp
G28 W ; home all without mesh bed level
G80 ; mesh bed leveling
G1 Y-3.0 F1000.0 ; go outside print area
G92 E0.0
G1 X60.0 E9.0 F1000.0 ; intro line
G1 X100.0 E12.5 F1000.0 ; intro line
G92 E0.0
M221 S95

; Don't change E values below. Excessive value can damage the printer.

M907 E538 ; set extruder motor current
G21 ; set units to millimeters
G90 ; use absolute coordinates
M83 ; use relative distances for extrusion
M900 K0.08 ; Filament gcode LA 1.5
M900 K45 ; Filament gcode LA 1.0
;LAYER_CHANGE
;Z:0.2
;HEIGHT:0.2
;BEFORE_LAYER_CHANGE
G92 E0.0
;0.2


G1 E-1.40000 F2100.000
G1 Z0.200 F10800.000
;AFTER_LAYER_CHANGE
;0.2
G1 Z0.400
G1 X64.078 Y67.592
G1 Z0.200
G1 E1.40000 F2100.000
M204 S1000
;TYPE:Skirt
;WIDTH:0.42
G1 F1200.000
G1 X64.996 Y67.239 E0.03083
G1 X66.070 Y67.103 E0.03393
G1 X183.924 Y67.103 E3.69523
G1 X185.293 Y67.330 E0.04351
G1 X186.113 Y67.692 E0.02810
G1 X186.844 Y68.230 E0.02846
G1 X197.663 Y78.385 E0.46525
G1 X198.620 Y79.451 E0.04491
G1 X199.438 Y80.785 E0.04906
G1 X199.986 Y82.218 E0.04811
G1 X200.271 Y83.864 E0.05238
G1 X200.271 Y126.089 E1.32392
G1 X199.999 Y127.729 E0.05213
G1 X199.329 Y129.419 E0.05700
G1 X198.604 Y130.569 E0.04263
G1 X197.677 Y131.600 E0.04346
G1 X186.942 Y141.685 E0.46183
G1 X185.922 Y142.408 E0.03920
G1 X185.004 Y142.761 E0.03083
G1 X183.930 Y142.897 E0.03393
G1 X65.848 Y142.886 E3.70238
M73 P0 R183
M73 Q0 S185
G1 X64.957 Y142.751 E0.02826
G1 X64.146 Y142.438 E0.02726
G1 X63.081 Y141.706 E0.04051
G1 X52.359 Y131.637 E0.46120
G1 X51.380 Y130.549 E0.04586
G1 X50.554 Y129.198 E0.04966
G1 X50.012 Y127.775 E0.04775
G1 X49.729 Y126.102 E0.05320
G1 X49.729 Y83.911 E1.32285
G1 X49.987 Y82.330 E0.05022
G1 X50.666 Y80.591 E0.05854
G1 X51.396 Y79.431 E0.04299
G1 X52.320 Y78.403 E0.04334
G1 X63.058 Y68.315 E0.46195
G1 X64.029 Y67.627 E0.03732
; printing object dno.stl id:0 copy 0
;WIPE_START
G1 F8640.000
G1 X64.996 Y67.239 E-0.24051
G1 X66.070 Y67.103 E-0.24988
G1 X69.706 Y67.103 E-0.83961
;WIPE_END
G1 E-0.07000 F2100.000
G1 Z0.400 F10800.000
G1 X58.039 Y122.632
G1 Z0.200
G1 E1.40000 F2100.000
;TYPE:Perimeter
G1 F1200.000
G1 X58.825 Y122.723 E0.02482
G1 X59.527 Y123.014 E0.02383
G1 X60.126 Y123.474 E0.02369
G1 X60.586 Y124.073 E0.02369
G1 X60.875 Y124.771 E0.02369
G1 X60.974 Y125.520 E0.02369
G1 X60.875 Y126.269 E0.02369
G1 X60.586 Y126.967 E0.02369
G1 X60.126 Y127.566 E0.02369
G1 X59.527 Y128.026 E0.02369
G1 X58.829 Y128.315 E0.02369
G1 X58.080 Y128.414 E0.02369
G1 X57.331 Y128.315 E0.02369
G1 X56.672 Y128.042 E0.02238
G1 X56.036 Y127.570 E0.02482
G1 X55.574 Y126.967 E0.02383
G1 X55.285 Y126.269 E0.02369
G1 X55.186 Y125.520 E0.02369
G1 X55.285 Y124.771 E0.02369
G1 X55.574 Y124.073 E0.02369
G1 X56.034 Y123.474 E0.02369
G1 X56.633 Y123.014 E0.02369
G1 X57.331 Y122.725 E0.02369
G1 X57.979 Y122.639 E0.02049
G1 X58.028 Y123.013 F10800.000
;TYPE:External perimeter
G1 F1200.000
G1 X58.729 Y123.091 E0.02211
G1 X59.337 Y123.343 E0.02062
G1 X59.857 Y123.743 E0.02057
G1 X60.257 Y124.263 E0.02057
G1 X60.508 Y124.869 E0.02057
G1 X60.594 Y125.520 E0.02057
G1 X60.508 Y126.171 E0.02057
G1 X60.257 Y126.777 E0.02057
G1 X59.857 Y127.297 E0.02057
G1 X59.337 Y127.697 E0.02057
G1 X58.731 Y127.948 E0.02057
G1 X58.080 Y128.034 E0.02057
G1 X57.429 Y127.948 E0.02057
G1 X56.859 Y127.712 E0.01935
G1 X56.304 Y127.299 E0.02171
G1 X55.903 Y126.777 E0.02062
G1 X55.652 Y126.171 E0.02057
G1 X55.566 Y125.520 E0.02057
G1 X55.652 Y124.869 E0.02057
G1 X55.903 Y124.263 E0.02057
G1 X56.303 Y123.743 E0.02057
G1 X56.823 Y123.343 E0.02057
G1 X57.429 Y123.092 E0.02057
G1 X57.969 Y123.021 E0.01706
G1 X58.223 Y122.664 F10800.000
;WIPE_START
G1 F8640.000
G1 X58.729 Y123.091 E-0.17630
G1 X59.337 Y123.343 E-0.15188
G1 X59.857 Y123.743 E-0.15151
G1 X60.257 Y124.263 E-0.15151
G1 X60.508 Y124.869 E-0.15151
G1 X60.594 Y125.520 E-0.15151
G1 X60.508 Y126.171 E-0.15151
G1 X60.257 Y126.777 E-0.15151
G1 X60.012 Y127.095 E-0.09276
;WIPE_END
G1 E-0.07000 F2100.000
G1 Z0.400 F10800.000
G1 X189.125 Y85.229
G1 Z0.200
G1 E1.40000 F2100.000
;TYPE:Perimeter
G1 F1200.000
G1 X189.026 Y84.480 E0.02369
G1 X189.125 Y83.731 E0.02369
G1 X189.414 Y83.033 E0.02369
G1 X189.874 Y82.434 E0.02369
G1 X190.473 Y81.974 E0.02369
G1 X191.171 Y81.685 E0.02369
G1 X191.879 Y81.592 E0.02238
G1 X192.665 Y81.683 E0.02482
G1 X193.367 Y81.974 E0.02383
G1 X193.966 Y82.434 E0.02369
G1 X194.426 Y83.033 E0.02369
G1 X194.715 Y83.731 E0.02369
G1 X194.814 Y84.480 E0.02369
G1 X194.715 Y85.229 E0.02369
G1 X194.426 Y85.927 E0.02369
G1 X193.966 Y86.526 E0.02369
G1 X193.367 Y86.986 E0.02369
G1 X192.669 Y87.275 E0.02369
G1 X191.920 Y87.374 E0.02369
G1 X191.171 Y87.275 E0.02369
G1 X190.512 Y87.002 E0.02238
G1 X189.876 Y86.530 E0.02482
G1 X189.414 Y85.927 E0.02383
G1 X189.148 Y85.284 E0.02181
G1 X189.496 Y85.140 F10800.000
;TYPE:External perimeter
G1 F1200.000
G1 X189.406 Y84.480 E0.02089
G1 X189.492 Y83.829 E0.02057
G1 X189.743 Y83.223 E0.02057
G1 X190.143 Y82.703 E0.02057
G1 X190.663 Y82.303 E0.02057
G1 X191.269 Y82.052 E0.02057
G1 X191.881 Y81.972 E0.01935
G1 X192.569 Y82.051 E0.02171
G1 X193.177 Y82.303 E0.02062
G1 X193.697 Y82.703 E0.02057
G1 X194.097 Y83.223 E0.02057
G1 X194.348 Y83.829 E0.02057
G1 X194.434 Y84.480 E0.02057
G1 X194.348 Y85.131 E0.02057
G1 X194.097 Y85.737 E0.02057
G1 X193.697 Y86.257 E0.02057
G1 X193.177 Y86.657 E0.02057
G1 X192.571 Y86.908 E0.02057
G1 X191.920 Y86.994 E0.02057
G1 X191.269 Y86.908 E0.02057
G1 X190.699 Y86.672 E0.01935
G1 X190.144 Y86.259 E0.02171
G1 X189.743 Y85.737 E0.02062
G1 X189.519 Y85.196 E0.01837
G1 X189.109 Y85.038 F10800.000
;WIPE_START
G1 F8640.000
G1 X189.406 Y84.480 E-0.16726
G1 X189.492 Y83.829 E-0.15151
G1 X189.743 Y83.223 E-0.15151
G1 X190.143 Y82.703 E-0.15151
G1 X190.663 Y82.303 E-0.15151
G1 X191.269 Y82.052 E-0.15151
G1 X191.881 Y81.972 E-0.14253
G1 X192.569 Y82.051 E-0.15985
G1 X192.980 Y82.222 E-0.10282
;WIPE_END
G1 E-0.07000 F2100.000
G1 Z0.400 F10800.000
G1 X187.938 Y89.815
G1 Z0.200
G1 E1.40000 F2100.000
;TYPE:Perimeter
G1 F1200.000
G1 X187.023 Y90.194 E0.03105
G1 X186.237 Y90.797 E0.03105
G1 X185.634 Y91.583 E0.03105
G1 X185.255 Y92.498 E0.03105
G1 X185.133 Y93.428 E0.02942
G1 X185.133 Y116.572 E0.72564
G1 X185.255 Y117.502 E0.02942
G1 X185.634 Y118.417 E0.03105
G1 X186.237 Y119.203 E0.03105
G1 X187.023 Y119.806 E0.03105
G1 X187.938 Y120.185 E0.03105
G1 X188.868 Y120.307 E0.02942
G1 X191.884 Y120.307 E0.09454
G1 X192.877 Y120.399 E0.03129
G1 X193.802 Y120.662 E0.03014
G1 X194.662 Y121.091 E0.03014
G1 X195.430 Y121.670 E0.03014
G1 X196.077 Y122.381 E0.03014
G1 X196.583 Y123.198 E0.03014
G1 X196.931 Y124.094 E0.03014
G1 X197.107 Y125.039 E0.03014
G1 X197.107 Y126.001 E0.03014
G1 X196.931 Y126.946 E0.03014
G1 X196.583 Y127.842 E0.03014
G1 X196.077 Y128.659 E0.03014
G1 X195.430 Y129.370 E0.03014
G1 X194.662 Y129.949 E0.03014
G1 X193.802 Y130.378 E0.03014
G1 X192.877 Y130.641 E0.03014
G1 X191.884 Y130.733 E0.03129
G1 X188.868 Y130.733 E0.09454
G1 X187.938 Y130.855 E0.02942
G1 X187.023 Y131.234 E0.03105
G1 X186.237 Y131.837 E0.03105
G1 X185.634 Y132.623 E0.03105
G1 X185.255 Y133.538 E0.03105
G1 X185.133 Y134.468 E0.02942
G1 X185.133 Y138.468 E0.12542
G1 X185.085 Y138.832 E0.01150
G1 X184.965 Y139.123 E0.00987
G1 X184.773 Y139.373 E0.00987
G1 X184.523 Y139.565 E0.00987
G1 X184.232 Y139.685 E0.00987
G1 X183.868 Y139.733 E0.01150
G1 X66.132 Y139.733 E3.69156
G1 X65.768 Y139.685 E0.01150
G1 X65.477 Y139.565 E0.00987
G1 X65.227 Y139.373 E0.00987
G1 X65.035 Y139.123 E0.00987
G1 X64.915 Y138.832 E0.00987
G1 X64.867 Y138.468 E0.01150
G1 X64.867 Y134.468 E0.12542
G1 X64.745 Y133.538 E0.02942
G1 X64.366 Y132.623 E0.03105
G1 X63.763 Y131.837 E0.03105
G1 X62.977 Y131.234 E0.03105
G1 X62.062 Y130.855 E0.03105
G1 X61.132 Y130.733 E0.02942
G1 X58.116 Y130.733 E0.09454
G1 X57.123 Y130.641 E0.03129
G1 X56.198 Y130.378 E0.03014
G1 X55.338 Y129.949 E0.03014
G1 X54.570 Y129.370 E0.03014
G1 X53.923 Y128.659 E0.03014
G1 X53.417 Y127.842 E0.03014
G1 X53.069 Y126.946 E0.03014
G1 X52.893 Y126.001 E0.03014
G1 X52.893 Y125.039 E0.03014
G1 X53.069 Y124.094 E0.03014
G1 X53.417 Y123.198 E0.03014
G1 X53.923 Y122.381 E0.03014
G1 X54.570 Y121.670 E0.03014
G1 X55.338 Y121.091 E0.03014
G1 X56.198 Y120.662 E0.03014
G1 X57.123 Y120.399 E0.03014
G1 X58.116 Y120.307 E0.03129
G1 X61.132 Y120.307 E0.09454
G1 X62.062 Y120.185 E0.02942
G1 X62.977 Y119.806 E0.03105
G1 X63.763 Y119.203 E0.03105
G1 X64.366 Y118.417 E0.03105
G1 X64.745 Y117.502 E0.03105
G1 X64.867 Y116.572 E0.02942
G1 X64.867 Y93.428 E0.72564
G1 X64.745 Y92.498 E0.02942
G1 X64.366 Y91.583 E0.03105
G1 X63.763 Y90.797 E0.03105
G1 X62.977 Y90.194 E0.03105
G1 X62.062 Y89.815 E0.03105
G1 X61.132 Y89.693 E0.02942
G1 X58.116 Y89.693 E0.09454
G1 X57.123 Y89.601 E0.03129
G1 X56.198 Y89.338 E0.03014
G1 X55.338 Y88.909 E0.03014
G1 X54.570 Y88.330 E0.03014
G1 X53.923 Y87.619 E0.03014
G1 X53.417 Y86.802 E0.03014
G1 X53.069 Y85.906 E0.03014
G1 X52.893 Y84.961 E0.03014
G1 X52.893 Y83.999 E0.03014
G1 X53.069 Y83.054 E0.03014
G1 X53.417 Y82.158 E0.03014
G1 X53.923 Y81.341 E0.03014
G1 X54.570 Y80.630 E0.03014
G1 X55.338 Y80.051 E0.03014
G1 X56.198 Y79.622 E0.03014
G1 X57.123 Y79.359 E0.03014
G1 X58.116 Y79.267 E0.03129
G1 X61.132 Y79.267 E0.09454
G1 X62.062 Y79.145 E0.02942
G1 X62.977 Y78.766 E0.03105
G1 X63.763 Y78.163 E0.03105
G1 X64.366 Y77.377 E0.03105
G1 X64.745 Y76.462 E0.03105
G1 X64.867 Y75.532 E0.02942
G1 X64.867 Y71.532 E0.12542
G1 X64.915 Y71.168 E0.01150
G1 X65.035 Y70.877 E0.00987
G1 X65.227 Y70.627 E0.00987
G1 X65.477 Y70.435 E0.00987
G1 X65.768 Y70.315 E0.00987
G1 X66.132 Y70.267 E0.01150
G1 X183.868 Y70.267 E3.69156
G1 X184.232 Y70.315 E0.01150
G1 X184.523 Y70.435 E0.00987
G1 X184.773 Y70.627 E0.00987
G1 X184.965 Y70.877 E0.00987
G1 X185.085 Y71.168 E0.00987
G1 X185.133 Y71.532 E0.01150
G1 X185.133 Y75.532 E0.12542
G1 X185.255 Y76.462 E0.02942
G1 X185.634 Y77.377 E0.03105
G1 X186.237 Y78.163 E0.03105
G1 X187.023 Y78.766 E0.03105
G1 X187.938 Y79.145 E0.03105
G1 X188.868 Y79.267 E0.02942
G1 X191.884 Y79.267 E0.09454
G1 X192.877 Y79.359 E0.03129
G1 X193.802 Y79.622 E0.03014
G1 X194.662 Y80.051 E0.03014
G1 X195.430 Y80.630 E0.03014
G1 X196.077 Y81.341 E0.03014
G1 X196.583 Y82.158 E0.03014
G1 X196.931 Y83.054 E0.03014
G1 X197.107 Y83.999 E0.03014
G1 X197.107 Y84.961 E0.03014
G1 X196.931 Y85.906 E0.03014
G1 X196.583 Y86.802 E0.03014
G1 X196.077 Y87.619 E0.03014
G1 X195.430 Y88.330 E0.03014
G1 X194.662 Y88.909 E0.03014
G1 X193.802 Y89.338 E0.03014
G1 X192.877 Y89.601 E0.03014
G1 X191.884 Y89.693 E0.03129
G1 X188.868 Y89.693 E0.09454
G1 X187.998 Y89.808 E0.02754
G1 X188.047 Y90.181 F10800.000
;TYPE:External perimeter
G1 F1200.000
G1 X187.213 Y90.524 E0.02825
G1 X186.506 Y91.066 E0.02794
G1 X185.964 Y91.773 E0.02794
G1 X185.623 Y92.597 E0.02794
G1 X185.510 Y93.453 E0.02709
G1 X185.510 Y116.547 E0.72409
G1 X185.623 Y117.403 E0.02709
G1 X185.964 Y118.227 E0.02794
G1 X186.506 Y118.934 E0.02794
G1 X187.213 Y119.476 E0.02794
G1 X188.037 Y119.817 E0.02794
G1 X188.893 Y119.930 E0.02709
G1 X191.901 Y119.930 E0.09431
G1 X192.947 Y120.027 E0.03293
G1 X193.939 Y120.309 E0.03233
G1 X194.862 Y120.769 E0.03233
G1 X195.685 Y121.390 E0.03233
G1 X196.380 Y122.152 E0.03233
G1 X196.922 Y123.029 E0.03233
G1 X197.295 Y123.991 E0.03233
G1 X197.484 Y125.004 E0.03233
G1 X197.484 Y126.036 E0.03233
G1 X197.295 Y127.049 E0.03233
G1 X196.922 Y128.011 E0.03233
G1 X196.380 Y128.888 E0.03233
G1 X195.685 Y129.650 E0.03233
G1 X194.862 Y130.271 E0.03233
G1 X193.939 Y130.731 E0.03233
G1 X192.947 Y131.013 E0.03233
G1 X191.901 Y131.110 E0.03293
G1 X188.893 Y131.110 E0.09431
G1 X188.037 Y131.223 E0.02709
G1 X187.213 Y131.564 E0.02794
G1 X186.506 Y132.106 E0.02794
G1 X185.964 Y132.813 E0.02794
G1 X185.623 Y133.637 E0.02794
G1 X185.510 Y134.493 E0.02709
G1 X185.510 Y138.493 E0.12542
G1 X185.452 Y138.931 E0.01384
G1 X185.294 Y139.313 E0.01299
G1 X185.042 Y139.642 E0.01299
G1 X184.713 Y139.894 E0.01299
G1 X184.331 Y140.052 E0.01299
G1 X183.893 Y140.110 E0.01384
G1 X66.107 Y140.110 E3.69311
G1 X65.669 Y140.052 E0.01384
G1 X65.287 Y139.894 E0.01299
G1 X64.958 Y139.642 E0.01299
G1 X64.706 Y139.313 E0.01299
G1 X64.548 Y138.931 E0.01299
G1 X64.490 Y138.493 E0.01384
G1 X64.490 Y134.493 E0.12542
G1 X64.377 Y133.637 E0.02709
G1 X64.036 Y132.813 E0.02794
G1 X63.494 Y132.106 E0.02794
G1 X62.787 Y131.564 E0.02794
G1 X61.963 Y131.223 E0.02794
G1 X61.107 Y131.110 E0.02709
G1 X58.099 Y131.110 E0.09431
G1 X57.053 Y131.013 E0.03293
G1 X56.061 Y130.731 E0.03233
G1 X55.138 Y130.271 E0.03233
G1 X54.315 Y129.650 E0.03233
G1 X53.620 Y128.888 E0.03233
G1 X53.078 Y128.011 E0.03233
G1 X52.705 Y127.049 E0.03233
G1 X52.516 Y126.036 E0.03233
G1 X52.516 Y125.004 E0.03233
G1 X52.705 Y123.991 E0.03233
G1 X53.078 Y123.029 E0.03233
G1 X53.620 Y122.152 E0.03233
G1 X54.315 Y121.390 E0.03233
G1 X55.138 Y120.769 E0.03233
G1 X56.061 Y120.309 E0.03233
G1 X57.053 Y120.027 E0.03233
G1 X58.099 Y119.930 E0.03293
G1 X61.107 Y119.930 E0.09431
G1 X61.963 Y119.817 E0.02709
G1 X62.787 Y119.476 E0.02794
G1 X63.494 Y118.934 E0.02794
G1 X64.036 Y118.227 E0.02794
G1 X64.377 Y117.403 E0.02794
G1 X64.490 Y116.547 E0.02709
G1 X64.490 Y93.453 E0.72409
G1 X64.377 Y92.597 E0.02709
G1 X64.036 Y91.773 E0.02794
G1 X63.494 Y91.066 E0.02794
G1 X62.787 Y90.524 E0.02794
G1 X61.963 Y90.183 E0.02794
G1 X61.107 Y90.070 E0.02709
G1 X58.099 Y90.070 E0.09431
G1 X57.053 Y89.973 E0.03293
G1 X56.061 Y89.691 E0.03233
G1 X55.138 Y89.231 E0.03233
G1 X54.315 Y88.610 E0.03233
G1 X53.620 Y87.848 E0.03233
G1 X53.078 Y86.971 E0.03233
G1 X52.705 Y86.009 E0.03233
G1 X52.516 Y84.996 E0.03233
G1 X52.516 Y83.964 E0.03233
G1 X52.705 Y82.951 E0.03233
G1 X53.078 Y81.989 E0.03233
G1 X53.620 Y81.112 E0.03233
G1 X54.315 Y80.350 E0.03233
G1 X55.138 Y79.729 E0.03233
G1 X56.061 Y79.269 E0.03233
G1 X57.053 Y78.987 E0.03233
G1 X58.099 Y78.890 E0.03293
G1 X61.107 Y78.890 E0.09431
G1 X61.963 Y78.777 E0.02709
G1 X62.787 Y78.436 E0.02794
G1 X63.494 Y77.894 E0.02794
G1 X64.036 Y77.187 E0.02794
G1 X64.377 Y76.363 E0.02794
G1 X64.490 Y75.507 E0.02709
G1 X64.490 Y71.507 E0.12542
G1 X64.548 Y71.069 E0.01384
G1 X64.706 Y70.687 E0.01299
G1 X64.958 Y70.358 E0.01299
G1 X65.287 Y70.106 E0.01299
G1 X65.669 Y69.948 E0.01299
G1 X66.107 Y69.890 E0.01384
G1 X183.893 Y69.890 E3.69311
G1 X184.331 Y69.948 E0.01384
G1 X184.713 Y70.106 E0.01299
G1 X185.042 Y70.358 E0.01299
G1 X185.294 Y70.687 E0.01299
G1 X185.452 Y71.069 E0.01299
G1 X185.510 Y71.507 E0.01384
G1 X185.510 Y75.507 E0.12542
G1 X185.623 Y76.363 E0.02709
G1 X185.964 Y77.187 E0.02794
G1 X186.506 Y77.894 E0.02794
G1 X187.213 Y78.436 E0.02794
G1 X188.037 Y78.777 E0.02794
G1 X188.893 Y78.890 E0.02709
G1 X191.901 Y78.890 E0.09431
G1 X192.947 Y78.987 E0.03293
G1 X193.939 Y79.269 E0.03233
G1 X194.862 Y79.729 E0.03233
G1 X195.685 Y80.350 E0.03233
G1 X196.380 Y81.112 E0.03233
G1 X196.922 Y81.989 E0.03233
G1 X197.295 Y82.951 E0.03233
G1 X197.484 Y83.964 E0.03233
G1 X197.484 Y84.996 E0.03233
G1 X197.295 Y86.009 E0.03233
G1 X196.922 Y86.971 E0.03233
G1 X196.380 Y87.848 E0.03233
G1 X195.685 Y88.610 E0.03233
G1 X194.862 Y89.231 E0.03233
G1 X193.939 Y89.691 E0.03233
G1 X192.947 Y89.973 E0.03233
G1 X191.901 Y90.070 E0.03293
