; generated by PrusaSlicer 2.3.0+win64 on 2021-03-10 at 11:19:23 UTC

; 

; external perimeters extrusion width = 0.45mm
; perimeters extrusion width = 0.45mm
; infill extrusion width = 0.45mm
; solid infill extrusion width = 0.45mm
; top infill extrusion width = 0.40mm
; support material extrusion width = 0.35mm
; first layer extrusion width = 0.42mm

M73 P0 R9
M73 Q0 S9
M201 X1000 Y1000 Z200 E5000 ; sets maximum accelerations, mm/sec^2
M203 X200 Y200 Z12 E120 ; sets maximum feedrates, mm/sec
M204 P1250 R1250 T1250 ; sets acceleration (P, T) and retract acceleration (R), mm/sec^2
M205 X8.00 Y8.00 Z0.40 E4.50 ; sets the jerk limits, mm/sec
M205 S0 T0 ; sets the minimum extruding and travel feed rate, mm/sec
M107
;TYPE:Custom
M862.3 P "MK3" ; printer model check
M862.1 P0.4 ; nozzle diameter check
M115 U3.9.3 ; tell printer latest fw version
G90 ; use absolute coordinates
M83 ; extruder relative mode
M104 S240 ; set extruder temp
M140 S85 ; set bed temp
M190 S85 ; wait for bed temp
M109 S240 ; wait for extruder temp
G28 W ; home all without mesh bed level
G80 ; mesh bed leveling
G1 Y-3.0 F1000.0 ; go outside print area
G92 E0.0
G1 X60.0 E9.0 F1000.0 ; intro line
G1 X100.0 E12.5 F1000.0 ; intro line
G92 E0.0
M221 S95

; Don't change E values below. Excessive value can damage the printer.

M907 E538 ; set extruder motor current
G21 ; set units to millimeters
G90 ; use absolute coordinates
M83 ; use relative distances for extrusion
M900 K0.08 ; Filament gcode LA 1.5
M900 K45 ; Filament gcode LA 1.0
;LAYER_CHANGE
;Z:0.2
;HEIGHT:0.2
;BEFORE_LAYER_CHANGE
G92 E0.0
;0.2


M73 P1 R9
M73 Q1 S9
G1 E-1.40000 F2100.000
G1 Z0.200 F10800.000
;AFTER_LAYER_CHANGE
;0.2
G1 Z0.400
G1 X118.793 Y100.776
G1 Z0.200
G1 E1.40000 F2100.000
M204 S1000
;TYPE:Skirt
;WIDTH:0.42
G1 F1200.000
G1 X119.799 Y99.587 E0.04882
G1 X120.846 Y98.746 E0.04212
G1 X122.230 Y98.022 E0.04896
G1 X123.450 Y97.655 E0.03995
G1 X125.003 Y97.492 E0.04896
G1 X126.570 Y97.658 E0.04940
G1 X127.840 Y98.050 E0.04169
G1 X129.224 Y98.793 E0.04925
G1 X130.413 Y99.799 E0.04882
G1 X131.254 Y100.846 E0.04212
G1 X131.978 Y102.230 E0.04896
G1 X132.345 Y103.450 E0.03996
G1 X132.508 Y105.003 E0.04896
G1 X132.342 Y106.565 E0.04925
G1 X131.951 Y107.836 E0.04169
G1 X131.207 Y109.224 E0.04940
G1 X130.201 Y110.413 E0.04882
G1 X129.154 Y111.254 E0.04212
G1 X127.770 Y111.978 E0.04896
G1 X126.550 Y112.345 E0.03995
G1 X124.997 Y112.508 E0.04896
G1 X123.435 Y112.342 E0.04925
G1 X122.164 Y111.951 E0.04169
G1 X120.776 Y111.207 E0.04940
G1 X119.587 Y110.201 E0.04882
G1 X118.746 Y109.154 E0.04212
G1 X118.022 Y107.770 E0.04896
G1 X117.655 Y106.550 E0.03996
G1 X117.492 Y104.997 E0.04896
G1 X117.658 Y103.430 E0.04940
G1 X118.050 Y102.160 E0.04169
G1 X118.764 Y100.828 E0.04737
G1 X119.095 Y101.006 F10800.000
G1 F1200.000
G1 X120.065 Y99.854 E0.04722
G1 X121.053 Y99.062 E0.03970
G1 X122.371 Y98.371 E0.04666
G1 X123.525 Y98.024 E0.03779
G1 X125.005 Y97.869 E0.04666
G1 X126.494 Y98.028 E0.04693
G1 X127.691 Y98.397 E0.03929
G1 X129.014 Y99.106 E0.04707
G1 X130.146 Y100.065 E0.04652
G1 X130.938 Y101.053 E0.03970
G1 X131.629 Y102.371 E0.04666
G1 X131.975 Y103.521 E0.03765
M73 Q2 S9
G1 X132.131 Y105.001 E0.04666
G1 X131.972 Y106.494 E0.04707
G1 X131.603 Y107.691 E0.03929
G1 X130.894 Y109.014 E0.04707
G1 X129.935 Y110.146 E0.04652
M73 P2 R9
G1 X128.947 Y110.938 E0.03970
G1 X127.629 Y111.629 E0.04666
G1 X126.479 Y111.975 E0.03765
G1 X124.999 Y112.131 E0.04666
G1 X123.506 Y111.972 E0.04707
G1 X122.309 Y111.603 E0.03929
G1 X120.986 Y110.894 E0.04707
G1 X119.854 Y109.935 E0.04652
G1 X119.062 Y108.947 E0.03970
G1 X118.371 Y107.629 E0.04666
G1 X118.025 Y106.479 E0.03765
G1 X117.869 Y104.999 E0.04666
G1 X118.028 Y103.506 E0.04707
G1 X118.397 Y102.309 E0.03929
G1 X119.067 Y101.059 E0.04447
G1 X119.397 Y101.235 F10800.000
G1 F1200.000
G1 X120.332 Y100.120 E0.04562
G1 X121.260 Y99.377 E0.03728
G1 X122.513 Y98.720 E0.04435
G1 X123.593 Y98.395 E0.03536
G1 X125.004 Y98.246 E0.04448
G1 X126.418 Y98.397 E0.04461
G1 X127.543 Y98.744 E0.03690
G1 X128.801 Y99.417 E0.04474
G1 X129.880 Y100.332 E0.04435
G1 X130.623 Y101.260 E0.03728
G1 X131.280 Y102.513 E0.04435
G1 X131.605 Y103.593 E0.03536
G1 X131.754 Y104.999 E0.04435
G1 X131.605 Y106.406 E0.04435
G1 X131.280 Y107.486 E0.03536
G1 X130.624 Y108.739 E0.04435
G1 X129.880 Y109.668 E0.03732
G1 X128.802 Y110.583 E0.04432
G1 X127.544 Y111.256 E0.04474
G1 X126.419 Y111.603 E0.03690
G1 X125.001 Y111.754 E0.04474
G1 X123.594 Y111.605 E0.04435
G1 X122.514 Y111.280 E0.03536
G1 X121.261 Y110.624 E0.04435
G1 X120.332 Y109.880 E0.03732
G1 X119.417 Y108.802 E0.04432
G1 X118.744 Y107.544 E0.04474
G1 X118.397 Y106.419 E0.03690
G1 X118.246 Y105.001 E0.04474
G1 X118.397 Y103.582 E0.04474
G1 X118.744 Y102.457 E0.03690
G1 X119.369 Y101.288 E0.04156
G1 X119.700 Y101.465 F10800.000
G1 F1200.000
G1 X119.730 Y101.409 E0.00201
G1 X120.598 Y100.387 E0.04204
G1 X121.464 Y99.694 E0.03476
G1 X122.655 Y99.070 E0.04216
G1 X123.665 Y98.765 E0.03310
G1 X125.003 Y98.623 E0.04216
G1 X126.347 Y98.768 E0.04240
G1 X127.399 Y99.092 E0.03452
G1 X128.591 Y99.730 E0.04240
G1 X129.613 Y100.598 E0.04204
G1 X130.306 Y101.464 E0.03476
G1 X130.930 Y102.655 E0.04216
G1 X131.235 Y103.665 E0.03310
G1 X131.377 Y104.999 E0.04204
G1 X131.235 Y106.336 E0.04216
G1 X130.930 Y107.346 E0.03310
G1 X130.305 Y108.537 E0.04216
G1 X129.613 Y109.402 E0.03472
G1 X128.590 Y110.270 E0.04208
G1 X127.398 Y110.908 E0.04240
G1 X126.346 Y111.233 E0.03452
G1 X125.001 Y111.377 E0.04240
G1 X123.664 Y111.235 E0.04216
G1 X122.654 Y110.930 E0.03310
G1 X121.463 Y110.305 E0.04216
G1 X120.598 Y109.613 E0.03472
G1 X119.730 Y108.590 E0.04208
G1 X119.092 Y107.398 E0.04240
G1 X118.767 Y106.346 E0.03452
G1 X118.623 Y105.001 E0.04240
G1 X118.768 Y103.653 E0.04252
M73 Q3 S9
G1 X119.091 Y102.604 E0.03440
G1 X119.672 Y101.518 E0.03862
; printing object Component3.stl id:0 copy 0
;WIPE_START
G1 F8640.000
G1 X119.730 Y101.409 E-0.02869
G1 X120.598 Y100.387 E-0.30960
G1 X121.464 Y99.694 E-0.25599
G1 X122.655 Y99.070 E-0.31048
G1 X123.665 Y98.765 E-0.24373
M73 P3 R9
G1 X124.447 Y98.682 E-0.18151
;WIPE_END
G1 E-0.07000 F2100.000
G1 Z0.400 F10800.000
G1 X122.352 Y103.182
G1 Z0.200
G1 E1.40000 F2100.000
;TYPE:Perimeter
G1 F1200.000
G1 X122.482 Y103.006 E0.00684
G1 X122.816 Y102.646 E0.01539
G1 X123.200 Y102.340 E0.01539
G1 X123.384 Y102.224 E0.00684
G1 X123.827 Y102.011 E0.01539
G1 X124.296 Y101.866 E0.01539
G1 X124.521 Y101.824 E0.00719
G1 X124.749 Y101.798 E0.00719
G1 X125.240 Y101.798 E0.01539
G1 X125.715 Y101.869 E0.01505
G1 X126.184 Y102.014 E0.01539
G1 X126.384 Y102.101 E0.00684
G1 X126.809 Y102.347 E0.01539
G1 X127.193 Y102.653 E0.01539
G1 X127.347 Y102.807 E0.00684
G1 X127.660 Y103.200 E0.01574
G1 X127.776 Y103.384 E0.00684
G1 X127.994 Y103.837 E0.01574
G1 X128.129 Y104.275 E0.01436
G1 X128.202 Y104.760 E0.01539
G1 X128.202 Y105.240 E0.01505
G1 X128.129 Y105.725 E0.01539
G1 X128.073 Y105.936 E0.00684
G1 X127.893 Y106.393 E0.01539
G1 X127.648 Y106.818 E0.01539
G1 X127.362 Y107.177 E0.01436
G1 X127.002 Y107.511 E0.01539
G1 X126.596 Y107.787 E0.01539
G1 X126.404 Y107.889 E0.00684
G1 X125.947 Y108.068 E0.01539
G1 X125.468 Y108.178 E0.01539
G1 X125.251 Y108.202 E0.00684
G1 X124.760 Y108.202 E0.01539
G1 X124.285 Y108.131 E0.01505
G1 X123.816 Y107.986 E0.01539
G1 X123.616 Y107.899 E0.00684
G1 X123.182 Y107.648 E0.01574
G1 X123.006 Y107.518 E0.00684
G1 X122.646 Y107.184 E0.01539
G1 X122.340 Y106.800 E0.01539
G1 X122.224 Y106.615 E0.00684
G1 X122.006 Y106.163 E0.01574
G1 X121.871 Y105.725 E0.01436
G1 X121.798 Y105.240 E0.01539
G1 X121.798 Y104.749 E0.01539
G1 X121.822 Y104.532 E0.00684
G1 X121.932 Y104.054 E0.01539
G1 X122.107 Y103.607 E0.01505
G1 X122.322 Y103.234 E0.01351
G1 X121.766 Y103.443 F10800.000
;TYPE:External perimeter
G1 F1200.000
G1 X122.036 Y102.975 E0.01694
G1 X122.191 Y102.765 E0.00817
G1 X122.559 Y102.369 E0.01694
G1 X122.981 Y102.032 E0.01694
G1 X123.202 Y101.893 E0.00817
G1 X123.689 Y101.659 E0.01694
G1 X124.205 Y101.500 E0.01694
G1 X124.465 Y101.450 E0.00829
G1 X124.728 Y101.421 E0.00829
G1 X125.268 Y101.421 E0.01694
G1 X125.799 Y101.501 E0.01682
G1 X126.315 Y101.660 E0.01694
G1 X126.554 Y101.764 E0.00817
G1 X127.022 Y102.034 E0.01694
G1 X127.444 Y102.371 E0.01694
G1 X127.629 Y102.556 E0.00817
G1 X127.968 Y102.981 E0.01707
G1 X128.107 Y103.202 E0.00817
G1 X128.343 Y103.692 E0.01707
G1 X128.499 Y104.197 E0.01658
G1 X128.579 Y104.732 E0.01694
G1 X128.579 Y105.268 E0.01682
G1 X128.499 Y105.803 E0.01694
G1 X128.431 Y106.054 E0.00817
G1 X128.234 Y106.557 E0.01694
G1 X127.964 Y107.025 E0.01694
G1 X127.807 Y107.238 E0.00829
G1 X127.634 Y107.439 E0.00829
G1 X127.238 Y107.806 E0.01694
G1 X126.791 Y108.111 E0.01694
G1 X126.561 Y108.232 E0.00817
G1 X126.058 Y108.430 E0.01694
G1 X125.531 Y108.550 E0.01694
G1 X125.272 Y108.579 E0.00817
G1 X124.732 Y108.579 E0.01694
G1 X124.201 Y108.499 E0.01682
G1 X123.685 Y108.340 E0.01694
G1 X123.446 Y108.236 E0.00817
G1 X122.975 Y107.964 E0.01707
G1 X122.765 Y107.809 E0.00817
G1 X122.369 Y107.441 E0.01694
G1 X122.032 Y107.019 E0.01694
G1 X121.893 Y106.798 E0.00817
G1 X121.657 Y106.308 E0.01707
G1 X121.501 Y105.803 E0.01658
G1 X121.421 Y105.268 E0.01694
G1 X121.421 Y104.728 E0.01694
G1 X121.450 Y104.469 E0.00817
G1 X121.570 Y103.942 E0.01694
G1 X121.744 Y103.499 E0.01494
G1 X122.165 Y103.413 F10800.000
;WIPE_START
G1 F8640.000
G1 X122.036 Y102.975 E-0.13849
G1 X122.191 Y102.765 E-0.06017
G1 X122.559 Y102.369 E-0.12478
G1 X122.981 Y102.032 E-0.12478
G1 X123.202 Y101.893 E-0.06017
G1 X123.689 Y101.659 E-0.12478
G1 X124.205 Y101.500 E-0.12478
G1 X124.465 Y101.450 E-0.06108
G1 X124.728 Y101.421 E-0.06108
G1 X125.268 Y101.421 E-0.12478
G1 X125.799 Y101.501 E-0.12387
G1 X126.315 Y101.660 E-0.12478
G1 X126.554 Y101.764 E-0.06017
G1 X126.615 Y101.800 E-0.01631
;WIPE_END
G1 E-0.07000 F2100.000
G1 Z0.400 F10800.000
G1 X127.776 Y103.645
G1 Z0.200
G1 E1.40000 F2100.000
;TYPE:Solid infill
;WIDTH:0.432313
G1 F1200.000
G1 X126.961 Y102.830 E0.03733
G1 X126.649 Y102.581 E0.01290
G1 X126.256 Y102.354 E0.01470
G1 X126.085 Y102.280 E0.00604
G1 X125.760 Y102.179 E0.01103
G1 X127.823 Y104.243 E0.09449
G1 X127.919 Y104.781 E0.01771
G1 X127.919 Y104.890 E0.00351
G1 X125.110 Y102.081 E0.12862
G1 X124.765 Y102.081 E0.01119
G1 X124.580 Y102.101 E0.00601
G1 X127.890 Y105.411 E0.15156
G1 X127.852 Y105.668 E0.00839
G1 X127.796 Y105.867 E0.00672
G1 X124.139 Y102.211 E0.16745
G1 X123.930 Y102.275 E0.00706
G1 X123.743 Y102.365 E0.00674
G1 X127.641 Y106.263 E0.17847
G1 X127.440 Y106.613 E0.01306
G1 X123.385 Y102.558 E0.18568
G1 X123.076 Y102.800 E0.01270
G1 X127.204 Y106.927 E0.18898
G1 X126.923 Y107.198 E0.01261
G1 X122.802 Y103.077 E0.18871
M73 Q4 S9
G1 X122.700 Y103.187 E0.00486
G1 X122.561 Y103.386 E0.00787
G1 X126.610 Y107.435 E0.18542
M73 P4 R9
G1 X126.450 Y107.545 E0.00627
G1 X126.264 Y107.640 E0.00677
G1 X122.360 Y103.736 E0.17877
G1 X122.205 Y104.131 E0.01376
G1 X125.869 Y107.795 E0.16777
G1 X125.421 Y107.898 E0.01487
G1 X122.102 Y104.579 E0.15200
G1 X122.081 Y104.765 E0.00606
G1 X122.081 Y105.108 E0.01112
G1 X124.892 Y107.919 E0.12871
G1 X124.781 Y107.919 E0.00357
G1 X124.349 Y107.854 E0.01417
G1 X124.243 Y107.822 E0.00357
G1 X122.170 Y105.748 E0.09493
G1 X122.268 Y106.055 E0.01041
G1 X122.472 Y106.478 E0.01522
G1 X122.571 Y106.636 E0.00604
G1 X122.822 Y106.951 E0.01304
G1 X123.669 Y107.798 E0.03878
; stop printing object Component3.stl id:0 copy 0
;LAYER_CHANGE
;Z:0.4
;HEIGHT:0.2
;BEFORE_LAYER_CHANGE
G92 E0.0
;0.4


;WIPE_START
G1 F8640.000
G1 X122.822 Y106.951 E-0.27658
G1 X122.571 Y106.636 E-0.09301
G1 X122.472 Y106.478 E-0.04306
G1 X122.268 Y106.055 E-0.10857
G1 X122.170 Y105.748 E-0.07426
G1 X124.243 Y107.822 E-0.67698
G1 X124.349 Y107.854 E-0.02548
G1 X124.486 Y107.875 E-0.03207
;WIPE_END
G1 E-0.07000 F2100.000
G1 Z0.400 F10800.000
;AFTER_LAYER_CHANGE
;0.4
M104 S250 ; set temperature
M140 S90 ; set bed temperature
G1 Z0.600
G1 X124.997 Y112.508
G1 Z0.400
G1 E1.40000 F2100.000
;TYPE:Skirt
;WIDTH:0.42
G1 F1230
G1 X123.435 Y112.342 E0.04925
G1 X122.164 Y111.951 E0.04169
G1 X120.776 Y111.207 E0.04940
G1 X119.587 Y110.201 E0.04882
G1 X118.746 Y109.154 E0.04212
G1 X118.022 Y107.770 E0.04896
G1 X117.655 Y106.550 E0.03996
G1 X117.492 Y104.997 E0.04896
G1 X117.658 Y103.430 E0.04940
G1 X118.050 Y102.160 E0.04169
G1 X118.793 Y100.776 E0.04925
G1 X119.799 Y99.587 E0.04882
G1 X120.846 Y98.746 E0.04212
G1 X122.230 Y98.022 E0.04896
G1 X123.450 Y97.655 E0.03995
G1 X125.003 Y97.492 E0.04896
G1 X126.570 Y97.658 E0.04940
G1 X127.840 Y98.050 E0.04169
G1 X129.224 Y98.793 E0.04925
G1 X130.413 Y99.799 E0.04882
G1 X131.254 Y100.846 E0.04212
G1 X131.978 Y102.230 E0.04896
G1 X132.345 Y103.450 E0.03996
G1 X132.508 Y105.003 E0.04896
G1 X132.342 Y106.565 E0.04925
G1 X131.951 Y107.836 E0.04169
G1 X131.207 Y109.224 E0.04940
G1 X130.201 Y110.413 E0.04882
G1 X129.154 Y111.254 E0.04212
G1 X127.770 Y111.978 E0.04896
G1 X126.550 Y112.345 E0.03995
G1 X125.057 Y112.502 E0.04708
G1 X125.017 Y112.129 F10800.000
G1 F1230
G1 X123.506 Y111.972 E0.04763
G1 X122.309 Y111.603 E0.03929
G1 X120.986 Y110.894 E0.04707
G1 X119.854 Y109.935 E0.04652
G1 X119.062 Y108.947 E0.03970
G1 X118.371 Y107.629 E0.04666
G1 X118.025 Y106.479 E0.03765
G1 X117.869 Y104.999 E0.04666
G1 X118.028 Y103.506 E0.04707
M73 Q5 S9
G1 X118.397 Y102.309 E0.03929
G1 X119.106 Y100.986 E0.04707
G1 X120.065 Y99.854 E0.04652
M73 P5 R9
G1 X121.053 Y99.062 E0.03970
G1 X122.371 Y98.371 E0.04666
M73 P5 R8
G1 X123.525 Y98.024 E0.03779
G1 X125.005 Y97.869 E0.04666
G1 X126.494 Y98.028 E0.04693
G1 X127.691 Y98.397 E0.03929
G1 X129.014 Y99.106 E0.04707
G1 X130.146 Y100.065 E0.04652
G1 X130.938 Y101.053 E0.03970
G1 X131.629 Y102.371 E0.04666
G1 X131.975 Y103.521 E0.03765
G1 X132.131 Y105.001 E0.04666
G1 X131.972 Y106.494 E0.04707
G1 X131.603 Y107.691 E0.03929
G1 X130.894 Y109.014 E0.04707
G1 X129.935 Y110.146 E0.04652
G1 X128.947 Y110.938 E0.03970
G1 X127.629 Y111.629 E0.04666
G1 X126.479 Y111.975 E0.03765
G1 X125.077 Y112.123 E0.04420
G1 X125.037 Y111.750 F10800.000
G1 F1230
G1 X123.594 Y111.605 E0.04548
G1 X122.514 Y111.280 E0.03536
G1 X121.261 Y110.624 E0.04435
G1 X120.332 Y109.880 E0.03732
G1 X119.417 Y108.802 E0.04432
G1 X118.744 Y107.544 E0.04474
G1 X118.397 Y106.419 E0.03690
G1 X118.246 Y105.001 E0.04474
G1 X118.397 Y103.582 E0.04474
G1 X118.744 Y102.457 E0.03690
G1 X119.417 Y101.199 E0.04474
G1 X120.332 Y100.120 E0.04435
G1 X121.260 Y99.377 E0.03728
G1 X122.513 Y98.720 E0.04435
G1 X123.593 Y98.395 E0.03536
G1 X125.004 Y98.246 E0.04448
G1 X126.418 Y98.397 E0.04461
G1 X127.543 Y98.744 E0.03690
G1 X128.801 Y99.417 E0.04474
G1 X129.880 Y100.332 E0.04435
G1 X130.623 Y101.260 E0.03728
G1 X131.280 Y102.513 E0.04435
G1 X131.605 Y103.593 E0.03536
G1 X131.754 Y104.999 E0.04435
G1 X131.605 Y106.406 E0.04435
G1 X131.280 Y107.486 E0.03536
G1 X130.624 Y108.739 E0.04435
G1 X129.880 Y109.668 E0.03732
G1 X128.802 Y110.583 E0.04432
G1 X127.544 Y111.256 E0.04474
G1 X126.419 Y111.603 E0.03690
G1 X125.097 Y111.744 E0.04170
G1 X125.057 Y111.371 F10800.000
G1 F1230
G1 X123.664 Y111.235 E0.04387
M73 Q5 S8
G1 X122.654 Y110.930 E0.03310
G1 X121.463 Y110.305 E0.04216
G1 X120.598 Y109.613 E0.03472
G1 X119.730 Y108.590 E0.04208
G1 X119.092 Y107.398 E0.04240
G1 X118.767 Y106.346 E0.03452
G1 X118.623 Y105.001 E0.04240
G1 X118.768 Y103.653 E0.04252
G1 X119.091 Y102.604 E0.03440
G1 X119.730 Y101.409 E0.04252
G1 X120.598 Y100.387 E0.04204
G1 X121.464 Y99.694 E0.03476
G1 X122.655 Y99.070 E0.04216
G1 X123.665 Y98.765 E0.03310
G1 X125.003 Y98.623 E0.04216
G1 X126.347 Y98.768 E0.04240
G1 X127.399 Y99.092 E0.03452
G1 X128.591 Y99.730 E0.04240
G1 X129.613 Y100.598 E0.04204
G1 X130.306 Y101.464 E0.03476
G1 X130.930 Y102.655 E0.04216
G1 X131.235 Y103.665 E0.03310
G1 X131.377 Y104.999 E0.04204
G1 X131.235 Y106.336 E0.04216
G1 X130.930 Y107.346 E0.03310
G1 X130.305 Y108.537 E0.04216
G1 X129.613 Y109.402 E0.03472
M73 Q6 S8
G1 X128.590 Y110.270 E0.04208
G1 X127.398 Y110.908 E0.04240
G1 X126.346 Y111.233 E0.03452
M73 P6 R8
G1 X125.116 Y111.365 E0.03877
; printing object Component3.stl id:0 copy 0
;WIPE_START
G1 F8640.000
G1 X123.664 Y111.235 E-0.33667
